!!!!SEGMENT: pl-wtm--r-1648_stefani-jozef--janie-janie-janie.krn
!!!cenid: 18xx:2045
!!!COM: Stefani, Józef
!!!COM-rismID: pe30024097
!!!CDT: 1800/04/16-1876/03/19
!!!CNT: Polish
!!!OTL: Janie, Janie, Janie
!!!PDT: 1855
!!!AGN: Secular
!!!YEC: Copyright 2022 Narodowy Instytut Fryderyka Chopina (https://polishscores.org)
!!!YEM: License CC-BY-4.0 (https://creativecommons.org/licenses/by/4.0)
!!!SMS-siglum: PL-Wtm
!!!SMS-shelfmark: R 1648
!!!SMS-shelfwork: W
!!!SMS-variant:
!!!SMS-altvar:
!!!NIFC-rismSourceID: 1001114439
!!!NIFC-rismChildID: 1001114439
!!!NIFC-islandoraID: pl-wtm:27475
!!!URL-pdf-islandora: https://repozytorium.nifc.pl/islandora/object/pl-wtm%3A27475/datastream/PDF/view
!!!URL-scan: https://polish.musicsources.pl/pl/lokalizacje/galeria/rekopisy/6401 @EN{Scan on Polish Music Sources Website} @PL{Skany w portalu Dziedzictwo Muzyki Polskiej w otwartym dostępie}
!!!IIIF:
!!!ONB-nifc:
!!!OMD: Andante
!!!AIN: 1 clars 2 empty 2 tenor 1 tromp 1 viola 2 violn
!!!key:
**kern	**dynam	**kern	**dynam	**kern	**dynam	**kern	**dynam	**kern	**dynam	**kern	**dynam	**kern	**text	**dynam	**kern	**text	**dynam	**kern	**text	**dynam
*part9	*	*part8	*	*part7	*	*part6	*	*part5	*	*part4	*	*part3	*	*	*part2	*	*	*part1	*	*
*staff9	*	*staff8	*	*staff7	*	*staff6	*	*staff5	*	*staff4	*	*staff3	*	*	*staff2	*	*	*staff1	*	*
*Iempty	*	*Iviola	*	*Ivioln	*	*Ivioln	*	*Itromp	*	*Iclars	*	*Iempty	*	*	*Itenor	*	*	*Itenor	*	*
*I"Baſso	*	*I"Viole	*	*I"[Violino Secundo]	*	*I"Violini	*	*I"Tromba in C	*	*I"Clarinetto in C	*	*I"[Basso]	*	*	*I"[Tenore Secundo]	*	*	*I"[Tenore Primo]	*	*
*I'B	*	*I'vle	*	*I'vl 2	*	*I'vl 1	*	*I'tr	*	*I'cl	*	*	*	*	*	*	*	*	*	*
*clefF4	*	*clefC3	*	*clefG2	*	*clefG2	*	*clefG2	*	*clefG2	*	*clefF4	*	*	*clefC4	*	*	*clefC4	*	*
*k[]	*	*k[]	*	*k[]	*	*k[]	*	*k[]	*	*k[]	*	*k[]	*	*	*k[]	*	*	*k[]	*	*
*C:	*	*C:	*	*C:	*	*C:	*	*C:	*	*C:	*	*C:	*	*	*C:	*	*	*C:	*	*
*M3/4	*	*M3/4	*	*M3/4	*	*M3/4	*	*M3/4	*	*M3/4	*	*M3/4	*	*	*M3/4	*	*	*M3/4	*	*
=1	=1	=1	=1	=1	=1	=1	=1	=1	=1	=1	=1	=1	=1	=1	=1	=1	=1	=1	=1	=1
*	*	*	*	*	*	*	*	*	*	*	*	*2\right	*	*	*2\right	*	*	*2\right	*	*
!	!	!	!	!	!	!	!	!LO:TX:t=P:problem=all\right&colon; global	!	!LO:TX:t=P:problem=all\right&colon; global	!	!	!	!	!	!	!	!	!	!
!	!	!	!	!	!	!	!	!	!	!	!	!LO:TX:t=P:problem=all\right&colon; global	!	!	!LO:TX:t=P:problem=all\right&colon; global	!	!	!LO:TX:t=P:problem=all\right&colon; global	!	!
!LO:TX:t=P:problem=all\right&colon; global	!	!LO:TX:t=P:problem=all\right&colon; global	!	!LO:TX:t=P:problem=all\right&colon; global	!	!LO:TX:t=P:problem=all\right&colon; global	!	!	!	!	!	!	!	!	!	!	!	!	!	!
!	!	!	!	!	!	!	!	!	!	!	!	!	!	!	!	!	!	!LO:TX:a:Bi:t=/&colon; Humorystyczna Kantata na dzień 25. Lutego 1855. w dzień\nobchodu srebrnego wesela J. Jasińskiego D{yrektora}. T{eatrów}. wykonana\ni Jemu ofiarowana przez J. Stefaniego\nprzyjaciela Jego &colon;/	!	!
2.r	.	2.r	.	2.r	.	2.r	.	2.ryy	.	2.ryy	.	2.C/	Ja-	.	2.E/	.	.	[>2c\	.	.
.	.	.	.	.	.	.	.	.	.	.	.	.	.	.	.	.	.	8.c\L]	.	.
.	.	.	.	.	.	.	.	.	.	.	.	.	.	.	.	.	.	16G\Jk	.	.
=2	=2	=2	=2	=2	=2	=2	=2	=2	=2	=2	=2	=2	=2	=2	=2	=2	=2	=2	=2	=2
*2\right	*	*2\right	*	*2\right	*	*2\right	*	*	*	*	*	*	*	*	*	*	*	*	*	*
!	!	!	!	!	!LO:DY:b	!	!LO:DY:b	!	!	!	!	!	!	!	!	!	!	!	!	!
4r	.	4r	.	4r	p	4r	p	2.ryy	.	2.ryy	.	4C;>/	-nie!	.	4E;>/	.	.	4G;>/	.	.
!	!LO:DY:b:rj	!	!LO:DY:b:rj	!	!	!	!	!	!	!	!	!	!	!	!	!	!	!	!	!
2C;>/	p	2c;>\	p	2e 2G;>/	.	(<8.cc/L	.	.	.	.	.	4r	.	.	4r	.	.	4r	.	.
.	.	.	.	.	.	16g/Jk	.	.	.	.	.	.	.	.	.	.	.	.	.	.
.	.	.	.	.	.	4g;>/)	.	.	.	.	.	4r;>	.	.	4r;>	.	.	4r;>	.	.
=3	=3	=3	=3	=3	=3	=3	=3	=3	=3	=3	=3	=3	=3	=3	=3	=3	=3	=3	=3	=3
2.r	.	2.r	.	2.r	.	2.r	.	2.ryy	.	2.ryy	.	2.C/	Ja-	.	(>2G/	.	.	(>2e\	.	.
.	.	.	.	.	.	.	.	.	.	.	.	.	.	.	8.G/L	.	.	8.e\L	.	.
.	.	.	.	.	.	.	.	.	.	.	.	.	.	.	16E/Jk)	.	.	16c\Jk)	.	.
=4	=4	=4	=4	=4	=4	=4	=4	=4	=4	=4	=4	=4	=4	=4	=4	=4	=4	=4	=4	=4
4r	.	4r	.	4r	.	4r	.	2.ryy	.	2.ryy	.	4C/	-nie!	.	4E/	.	.	4c\	.	.
2C;>/	.	2e 2G;>\	.	2g 2c;>/	.	(>8.ee\L	.	.	.	.	.	4r	.	.	4r	.	.	4r	.	.
.	.	.	.	.	.	16cc\Jk	.	.	.	.	.	.	.	.	.	.	.	.	.	.
.	.	.	.	.	.	4cc;>\)	.	.	.	.	.	4r;>	.	.	4r;>	.	.	4r;>	.	.
=5	=5	=5	=5	=5	=5	=5	=5	=5	=5	=5	=5	=5	=5	=5	=5	=5	=5	=5	=5	=5
!	!	!	!	!	!	!	!	!	!	!	!	!	!	!LO:DY:a:rj	!	!	!	!	!	!LO:DY:a:rj
2.r	.	2.r	.	2.r	.	2.r	.	2.ryy	.	2.ryy	.	2.G\	Ja-	f	2.B\	.	.	(>2g\	.	f
.	.	.	.	.	.	.	.	.	.	.	.	.	.	.	.	.	.	4d\)	.	.
=6	=6	=6	=6	=6	=6	=6	=6	=6	=6	=6	=6	=6	=6	=6	=6	=6	=6	=6	=6	=6
!	!	!	!	!	!LO:DY:b	!	!LO:DY:b	!	!	!	!	!	!	!	!	!	!	!	!	!
4r	.	4r	.	4r	p	4r	p	2.ryy	.	2.ryy	.	4C/	-nie	.	4c\	.	.	4e\	.	.
!	!LO:DY:b:rj	!	!	!	!	!	!	!	!	!	!	!	!	!	!	!	!	!	!	!
2GG/	p	2g 2G\	.	2b 2d/	.	(>4gg\	.	.	.	.	.	4r	.	.	4r	.	.	4r	.	.
.	.	.	.	.	.	4dd\)	.	.	.	.	.	4r	.	.	4r	.	.	4r	.	.
!!LO:LB:g=original
=7	=7	=7	=7	=7	=7	=7	=7	=7	=7	=7	=7	=7	=7	=7	=7	=7	=7	=7	=7	=7
!	!	!	!	!	!	!	!	!	!	!	!	!	!	!	!	!	!	!LO:TX:a:Bi:t=alla pollacca	!	!
2.r	.	2.r	.	2.r	.	2.r	.	2.r	.	2.r	.	2.r	.	.	2.r	.	.	2.r	.	.
=8	=8	=8	=8	=8	=8	=8	=8	=8	=8	=8	=8	=8	=8	=8	=8	=8	=8	=8	=8	=8
!	!LO:DY:b:rj	!	!	!	!LO:DY:b:rj	!	!LO:DY:a:rj	!	!	!	!	!	!	!	!	!	!	!	!	!
8CC/L	fp	8C/L	.	8c/L	fp	8eL 8G/	fp	2.r	.	2.r	.	2.r	.	.	2.r	.	.	2.r	.	.
16C/L	.	16c/L	.	16c/L	.	16eL 16G/	.	.	.	.	.	.	.	.	.	.	.	.	.	.
16C/JJ	.	16c/JJ	.	16c/JJ	.	16eJJ 16G/	.	.	.	.	.	.	.	.	.	.	.	.	.	.
*tremolo	*	*tremolo	*	*tremolo	*	*tremolo	*	*	*	*	*	*	*	*	*	*	*	*	*	*
8C/L	.	8c/L	.	8c/L	.	8eL 8G/	.	.	.	.	.	.	.	.	.	.	.	.	.	.
8C/	.	8c/	.	8c/	.	8e 8G/	.	.	.	.	.	.	.	.	.	.	.	.	.	.
8C/	.	8c/	.	8c/	.	8e 8G/	.	.	.	.	.	.	.	.	.	.	.	.	.	.
8C/J	.	8c/J	.	8c/J	.	8eJ 8G/	.	.	.	.	.	.	.	.	.	.	.	.	.	.
*Xtremolo	*	*Xtremolo	*	*Xtremolo	*	*Xtremolo	*	*	*	*	*	*	*	*	*	*	*	*	*	*
=9	=9	=9	=9	=9	=9	=9	=9	=9	=9	=9	=9	=9	=9	=9	=9	=9	=9	=9	=9	=9
8C/L	.	8c/L	.	8c/L	.	8eL 8G/	.	2.ryy	.	2.ryy	.	4r	.	.	4r	.	.	4r	.	.
16C/L	.	16c/L	.	16c/L	.	16eL 16G/	.	.	.	.	.	.	.	.	.	.	.	.	.	.
16C/JJ	.	16c/JJ	.	16c/JJ	.	16eJJ 16G/	.	.	.	.	.	.	.	.	.	.	.	.	.	.
!	!	!	!	!	!	!	!	!	!	!	!	!	!	!	!	!	!	!LO:TX:a:Bi:t=Solo	!	!
8C/	.	8c/	.	8c/	.	8e 8G/	.	.	.	.	.	8r	.	.	8r	.	.	8r	.	.
!	!	!	!	!LO:TX:a:Bi:t=Unis	!	!	!	!	!	!	!	!	!	!	!	!	!	!	!	!
8C/L	.	8E'</L	.	8G'>/Lyy	.	8G'>/L	.	.	.	.	.	8C/	Lu-	.	8E/	.	.	8G/	.	.
8.C/	.	8.E'</	.	8.c'>/yy	.	8.c'>/	.	.	.	.	.	8.C/	-dzi	.	8.E/	.	.	8.c\	.	.
16C/Jk	.	16F'</Jk	.	16d'>/Jkyy	.	16d'>/Jk	.	.	.	.	.	16C/	na	.	16F/	.	.	16d\	.	.
=10	=10	=10	=10	=10	=10	=10	=10	=10	=10	=10	=10	=10	=10	=10	=10	=10	=10	=10	=10	=10
[<2C/	.	(>4.G/	.	(y>4.e/yy	.	(>4.e/	.	2.ryy	.	2.ryy	.	2C/	świe-	.	4.G/	.	.	(>4.e\	.	.
.	.	8E/)	.	8c/)yy	.	8c/)	.	.	.	.	.	.	.	.	8E/	.	.	8c\)	.	.
8.C/L]	.	8.F/L	.	8.d|>/Lyy	.	8.d|>/L	.	.	.	.	.	8.C/	-cie	.	8.F/	.	.	8.d\	.	.
16C|</Jk	.	16G/Jk	.	16e|>/Jkyy	.	16e|>/Jk	.	.	.	.	.	16C/	nie-	.	16G/	.	.	16e\	.	.
=11	=11	=11	=11	=11	=11	=11	=11	=11	=11	=11	=11	=11	=11	=11	=11	=11	=11	=11	=11	=11
2C/	.	2E/	.	(y>4c/yy	.	(>4c/	.	2.ryy	.	2.ryy	.	4C/	-wie-	.	4E/	.	.	4c\	.	.
.	.	.	.	4G/)yy	.	4G/)	.	.	.	.	.	4C/	-le	.	4E/	.	.	4G/	.	.
8.r	.	8.r	.	8.ryy	.	8.r	.	.	.	.	.	8.r	.	.	8.r	.	.	8.r	.	.
16C/	.	16E/	.	16c/yy	.	16c/	.	.	.	.	.	16C/	Ob-	.	16E/	.	.	16c\	.	.
=12	=12	=12	=12	=12	=12	=12	=12	=12	=12	=12	=12	=12	=12	=12	=12	=12	=12	=12	=12	=12
!	!	!	!	!	!	!	!	!	!	!	!	!	!	!	!LO:TX:a:t=P:problem=w źródle wspólna belka dla 8.F\ i 16E\	!	!	!LO:TX:a:t=P:problem=w źródle wspólna belka dla 8.d\ i 16c#X\	!	!
8.GG/L	.	8.F/L	.	8.d/Lyy	.	8.d/L	.	2.ryy	.	2.ryy	.	4GG/	-cho-	.	8.F/	.	.	(>8.d\	.	.
16GG/Jk	.	16E/Jk	.	16c#X/Jkyy	.	16c#X/Jk	.	.	.	.	.	.	.	.	16E/	.	.	16c#X\)	.	.
8.GG/L	.	8.F/L	.	8.d/Lyy	.	8.d/L	.	.	.	.	.	8.GG/	-dzi	.	8.F/	.	.	8.d\	.	.
16GG/Jk	.	16D/Jk	.	16B/Jkyy	.	16B/Jk	.	.	.	.	.	16GG/	sreb-	.	16D/	.	.	16B\	.	.
!LO:TX:t=P:problem=mixed beam	!	!	!	!	!	!	!	!	!	!	!	!	!	!	!	!	!	!	!	!
8.GG/L	.	8.E/L	.	8.c#/Lyy	.	8.c#/L	.	.	.	.	.	8.GG/	-rne	.	8.E/	.	.	8.c#\	.	.
16G\Jk	.	16c/Jk	.	16e/Jkyy	.	16e/Jk	.	.	.	.	.	16G\	we-	.	16c\	.	.	16e\	.	.
!!LO:PB:g=original
=13	=13	=13	=13	=13	=13	=13	=13	=13	=13	=13	=13	=13	=13	=13	=13	=13	=13	=13	=13	=13
!	!	!	!	!LO:TX:a:t=P:problem=w źródle unison kontunuowany i oznaczony jako //	!	!	!	!	!	!	!	!	!	!	!	!	!	!	!	!
(>4G\	.	(<4c/	.	(y>4e/yy	.	(>4e/	.	2.ryy	.	2.ryy	.	4G\	-se-	.	4c\	.	.	4e\	.	.
8GG/)	.	8B/)	.	8d/)yy	.	8d/)	.	.	.	.	.	8GG/	-le	.	8B\	.	.	8d\	.	.
8C/L	.	8E|</L	.	8G|>/Lyy	.	8G|>/L	.	.	.	.	.	[<8C/L	I	.	[<8E/L	.	.	8G/L	.	.
8.C/	.	8.E|</	.	8.c|>/yy	.	8.c|>/	.	.	.	.	.	8.C/J]	.	.	8.E/J]	.	.	8.c/J	.	.
16C/Jk	.	16F|</Jk	.	16d|>/Jkyy	.	16d|>/Jk	.	.	.	.	.	16C/	co	.	16F/	.	.	16d\	.	.
=14	=14	=14	=14	=14	=14	=14	=14	=14	=14	=14	=14	=14	=14	=14	=14	=14	=14	=14	=14	=14
2C/	.	(>4.G/	.	(y>4.e/yy	.	(>4.e/	.	2.ryy	.	2.ryy	.	4.C/	w zgo-	.	4.G/	.	.	4.e\	.	.
.	.	8E/)	.	8c/)yy	.	8c/)	.	.	.	.	.	8C/	-dzie	.	8E/	.	.	8c\	.	.
8.C/L	.	8.F/L	.	8.d/Lyy	.	8.d/L	.	.	.	.	.	8.C/	i	.	8.F|>/L	.	.	8.d|>\L	.	.
16C/Jk	.	16G/Jk	.	16e/Jkyy	.	16e/Jk	.	.	.	.	.	16C/	mi-	.	16G|>/Jk	.	.	16e|>\Jk	.	.
=15	=15	=15	=15	=15	=15	=15	=15	=15	=15	=15	=15	=15	=15	=15	=15	=15	=15	=15	=15	=15
4.C/	.	4.E/	.	(y>4c/yy	.	(>4c/	.	2.ryy	.	2.ryy	.	4C/	-ło-	.	4E/	.	.	4c\	.	.
.	.	.	.	8G/)yy	.	8G/)	.	.	.	.	.	8C/	-ści	.	8E/	.	.	8G/	.	.
8r	.	8r	.	8ryy	.	8r	.	.	.	.	.	8r	.	.	8r	.	.	8r	.	.
!	!	!	!	!	!LO:DY:a:rj	!	!LO:DY:a:rj	!	!	!	!	!	!	!	!	!	!LO:DY:a:rj	!	!	!LO:DY:a:rj
4C/	.	4G/	.	4c/yy	mfyy	4e/	mf	.	.	.	.	4C/	Prze-	.	4c\	.	f	4e\	.	f
=16	=16	=16	=16	=16	=16	=16	=16	=16	=16	=16	=16	=16	=16	=16	=16	=16	=16	=16	=16	=16
4D\	.	4G/	.	4B/	.	4d/	.	2.ryy	.	2.ryy	.	4.D\	-by-	.	(>4.B\	.	.	8d\	.	.
.	.	.	.	.	.	.	.	.	.	.	.	.	.	.	.	.	.	4g^>\	.	.
4r	.	4r	.	4r	.	4r	.	.	.	.	.	.	.	.	.	.	.	.	.	.
.	.	.	.	.	.	.	.	.	.	.	.	8D\	-li	.	8G\)	.	.	8B\	.	.
4D\	.	4d 4A\	.	4c/	.	4f#X/	.	.	.	.	.	8D\	czas-	.	16c\LL	.	.	(>16e\LL	.	.
.	.	.	.	.	.	.	.	.	.	.	.	.	.	.	16B\JJ	.	.	16d\JJ)	.	.
.	.	.	.	.	.	.	.	.	.	.	.	16.D\	-sy	.	16.A/	.	.	16.c\	.	.
.	.	.	.	.	.	.	.	.	.	.	.	32D\	prze-	.	32F#X/	.	.	32A\	.	.
=17	=17	=17	=17	=17	=17	=17	=17	=17	=17	=17	=17	=17	=17	=17	=17	=17	=17	=17	=17	=17
!	!	!	!	!	!	!LO:TX:t=P:problem=diminuendolike accent	!	!	!	!	!	!	!	!	!	!	!	!	!	!
(>4D\	.	4d 4A\	.	(<4c/	.	(>4f#X^</	.	2.ryy	.	2.ryy	.	4D'>\	-szło-	.	4F#X/	.	.	4A^>/	.	.
8GG/)	.	8d 8G\	.	8B/)	.	8g/)	.	.	.	.	.	8G\	-ści,	.	8G/	.	.	8G/	.	.
8r	.	8r	.	8r	.	8r	.	.	.	.	.	8r	.	.	8r	.	.	8r	.	.
!	!LO:DY:b:rj	!	!LO:DY:a:rj	!	!	!	!LO:DY:a:rj	!	!	!	!	!	!	!	!	!	!	!	!	!
4C/	f	4g 4G\	f	4cc 4e\	.	4ee\	f	.	.	.	.	4r	.	.	4r	.	.	4r	.	.
!!LO:LB:g=original
=18	=18	=18	=18	=18	=18	=18	=18	=18	=18	=18	=18	=18	=18	=18	=18	=18	=18	=18	=18	=18
4D\	.	4g 4G\	.	8b\	.	(>8dd\	.	2.ryy	.	2.ryy	.	2.r	.	.	2.r	.	.	2.r	.	.
.	.	.	.	4b\	.	4gg\)	.	.	.	.	.	.	.	.	.	.	.	.	.	.
4r	.	4r	.	.	.	.	.	.	.	.	.	.	.	.	.	.	.	.	.	.
.	.	.	.	8g/	.	8b\	.	.	.	.	.	.	.	.	.	.	.	.	.	.
4D\	.	4d 4c\	.	(>16cc\LL	.	(>16ee\LL	.	.	.	.	.	.	.	.	.	.	.	.	.	.
.	.	.	.	16b\	.	16dd\	.	.	.	.	.	.	.	.	.	.	.	.	.	.
.	.	.	.	16.a\)	.	16.cc\)	.	.	.	.	.	.	.	.	.	.	.	.	.	.
.	.	.	.	32f#X|>\JJk	.	32a|>\JJk	.	.	.	.	.	.	.	.	.	.	.	.	.	.
=19	=19	=19	=19	=19	=19	=19	=19	=19	=19	=19	=19	=19	=19	=19	=19	=19	=19	=19	=19	=19
*	*	*	*	*	*	*	*	*2\right	*	*2\right	*	*	*	*	*	*	*	*	*	*
!	!	!	!	!	!	!	!	!	!	!	!	!	!	!	!	!	!	!LO:TX:b:Bi:t=Choro	!	!
!	!	!	!	!	!	!LO:TX:t=P:problem=diminuendolike accent	!	!	!	!LO:TX:t=P:problem=diminuendolike accent	!	!	!	!	!	!	!	!	!	!
!LO:TX:t=P:problem=diminuendolike accent	!	!LO:TX:t=P:problem=diminuendolike accent	!	!	!	!	!	!	!	!	!	!	!	!	!	!	!	!	!	!
(>4D^<\	.	[>4d 4c^<\	.	(>4f#X/	.	(>4a^</	.	(>4f#X/	.	(>4a^</	.	4r	.	.	4r	.	.	4r	.	.
8G\)	.	8d] 8B\	.	8g/)	.	8g/)	.	8g/)	.	8g/)	.	8r	.	.	8r	.	.	8r	.	.
!LO:TX:t=P:problem:problem=w źródle niecałe 6 taktów ukryte [nieoznaczona powtórka]	!	!LO:TX:t=P:problem:problem=w źródle niecałe 6 taktów ukryte [nieoznaczona powtórka]	!	!	!	!	!	!	!	!	!	!	!	!	!	!	!	!	!	!
!	!	!	!	!LO:TX:t=P:problem:problem=w źródle niecałe 6 taktów ukryte [nieoznaczona powtórka]	!	!LO:TX:t=P:problem:problem=w źródle niecałe 6 taktów ukryte [nieoznaczona powtórka]	!	!	!	!	!	!	!	!	!	!	!	!	!	!
!	!	!	!	!	!	!	!	!	!	!	!	!	!	!	!	!	!	!	!	!LO:DY:b:rj
8C/Lyy	.	8E'</Lyy	.	8G'>/Lyy	.	8G'>/Lyy	.	8e/L	.	8g|</L	.	8C/	.	.	8E/	.	.	8G/	Lu-	f
8.C/yy	.	8.E'</yy	.	8.c'>/yy	.	8.c'>/yy	.	8.e/	.	8.cc|</	.	8.C/	.	.	8.E/	.	.	8.c\	-dzi	.
16C/Jkyy	.	16F'</Jkyy	.	16d'>/Jkyy	.	16d'>/Jkyy	.	16f#/Jk	.	16dd|</Jk	.	16C/	.	.	16F/	.	.	16d\	na	.
=20	=20	=20	=20	=20	=20	=20	=20	=20	=20	=20	=20	=20	=20	=20	=20	=20	=20	=20	=20	=20
[y<2C/yy	.	(y>4.G/yy	.	(y>4.e/yy	.	(y>4.e/yy	.	(<4.g/	.	(>4.ee\	.	2C/	.	.	4.G/	.	.	(>4.e\	świe-	.
.	.	8E/)yy	.	8c/)yy	.	8c/)yy	.	8e/)	.	8cc\)	.	.	.	.	8E/	.	.	8c\	.	.
8.C/L]yy	.	8.F/Lyy	.	8.d|>/Lyy	.	8.d|>/Lyy	.	8.f/L	.	(>8.dd|>\L	.	8.C/	.	.	8.F/	.	.	8.d\)	-cie	.
16C|</Jkyy	.	16G/Jkyy	.	16e|>/Jkyy	.	16e|>/Jkyy	.	16g/Jk	.	16ee|>\Jk)	.	16C/	.	.	16G/	.	.	16e\	nie-	.
=21	=21	=21	=21	=21	=21	=21	=21	=21	=21	=21	=21	=21	=21	=21	=21	=21	=21	=21	=21	=21
2C/yy	.	2E/yy	.	(y>4c/yy	.	(y>4c/yy	.	4.e/	.	(>4cc\	.	4C/	.	.	4E/	.	.	4c\	-wie-	.
.	.	.	.	4G/)yy	.	4G/)yy	.	.	.	8g/)	.	8C/	.	.	8E/	.	.	8G/	-le	.
.	.	.	.	.	.	.	.	16g/LL	.	8ryy	.	8ryy	.	.	8ryy	.	.	8ryy	.	.
.	.	.	.	.	.	.	.	16g/JJ	.	.	.	.	.	.	.	.	.	.	.	.
8.ryy	.	8.ryy	.	8.ryy	.	8.ryy	.	8.g/L	.	8.r	.	8.r	.	.	8.r	.	.	8.r	.	.
16C/yy	.	16E/yy	.	16c/yy	.	16c/yy	.	16e/Jk	.	16cc\	.	16C/	.	.	16E/	.	.	16c\	Ob-	.
!!LO:PB:g=original
=22	=22	=22	=22	=22	=22	=22	=22	=22	=22	=22	=22	=22	=22	=22	=22	=22	=22	=22	=22	=22
8.GG/Lyy	.	8.F/Lyy	.	8.d/Lyy	.	8.d/Lyy	.	8.f/L	.	8.dd\L	.	4GG/	.	.	8.F/L	.	.	8.d\L	-cho-	.
16GG/Jkyy	.	16E/Jkyy	.	16c#X/Jkyy	.	16c#X/Jkyy	.	16e/Jk	.	16cc#X\Jk	.	.	.	.	16E/Jk	.	.	16c#X\Jk	.	.
8.GG/Lyy	.	8.F/Lyy	.	8.d/Lyy	.	8.d/Lyy	.	8.f/L	.	8.dd\L	.	8.GG/	.	.	8.F/	.	.	8.d\	-dzi	.
16GG/Jkyy	.	16D/Jkyy	.	16B/Jkyy	.	16B/Jkyy	.	16d/Jk	.	16b\Jk	.	16GG/	.	.	16D/	.	.	16B\	sreb-	.
!LO:TX:t=P:problem=mixed beam	!	!	!	!	!	!	!	!	!	!	!	!	!	!	!	!	!	!	!	!
8.GG/Lyy	.	8.E/Lyy	.	8.c#/Lyy	.	8.c#/Lyy	.	8.e/L	.	8.cc#\L	.	8.GG/	.	.	8.E/	.	.	8.c#\	-rne	.
16G\Jkyy	.	16c/Jkyy	.	16e/Jkyy	.	16e/Jkyy	.	16cc/Jk	.	16ee\Jk	.	16G\	.	.	16c\	.	.	16e\	we-	.
=23	=23	=23	=23	=23	=23	=23	=23	=23	=23	=23	=23	=23	=23	=23	=23	=23	=23	=23	=23	=23
!	!	!	!	!	!	!	!	!	!	!LO:TX:t=P:problem=diminuendolike accent	!	!	!	!	!	!	!	!	!	!
(y>4G\yy	.	(y<4c/yy	.	(y>4e/yy	.	(y>4e/yy	.	(>4cc\	.	(>4ee^<\	.	4G\	.	.	4c\	.	.	4e\	-se-	.
8GG/)yy	.	8B/)yy	.	8d/)yy	.	8d/)yy	.	8b\)	.	8dd\)	.	8GG/	.	.	8B\	.	.	8d\	-le	.
8C/Lyy	.	8E|</Lyy	.	8G|>/Lyy	.	8G|>/Lyy	.	8e|</L	.	8g|</L	.	[<8C/L	.	.	[<8E/L	.	.	(<8G/L	I	.
8.C/yy	.	8.E|</yy	.	8.c|>/yy	.	8.c|>/yy	.	8.e|</	.	8.cc|</	.	8.C/J]	.	.	8.E/J]	.	.	8.c/J)	.	.
16C/Jkyy	.	16F|</Jkyy	.	16d|>/Jkyy	.	16d|>/Jkyy	.	16f|</Jk	.	16dd|</Jk	.	16C/	.	.	16F/	.	.	16d\	co	.
=24	=24	=24	=24	=24	=24	=24	=24	=24	=24	=24	=24	=24	=24	=24	=24	=24	=24	=24	=24	=24
2C/yy	.	(y>4.G/yy	.	(y>4.e/yy	.	(y>4.e/yy	.	(<4.g/	.	(>4.ee\	.	2C/	.	.	(<4.G/	.	.	(>4.e\	wzgo-	.
.	.	8E/)yy	.	8c/)yy	.	8c/)yy	.	8e/)	.	8cc\)	.	.	.	.	8E/)	.	.	8c\)	dzie	.
8.C/Lyy	.	8.F/Lyyy	.	8.d/Lyy	.	8.d/Lyy	.	8.f/L	.	8.dd|>\L	.	8.C/	.	.	8.F/	.	.	8.d\	i	.
16C/Jkyy	.	16G/Jkyy	.	16e/Jkyy	.	16e/Jkyy	.	16g/Jk	.	16ee|>\Jk	.	16C/	.	.	16G/	.	.	16e\	mi-	.
=25	=25	=25	=25	=25	=25	=25	=25	=25	=25	=25	=25	=25	=25	=25	=25	=25	=25	=25	=25	=25
!	!	!	!	!LO:TX:a:t=P:problem=w źródle unison oznaczony jako //	!	!	!	!	!	!	!	!	!	!	!	!	!	!	!	!
4.C/	.	4.E/	.	4c/yy	.	4c/	.	4.e/	.	(>4cc\	.	4C/	.	.	4E/	.	.	4c\	-ło-	.
.	.	.	.	8G/yy	.	8G/	.	.	.	8g/)	.	8C/	.	.	8E/	.	.	8G/	-ści	.
8r	.	8r	.	8ryy	.	8r	.	8r	.	8r	.	8r	.	.	8r	.	.	8r	.	.
!	!LO:DY:b:rj	!	!	!	!LO:DY:b:rj	!	!LO:DY:b:rj	!	!	!	!	!	!	!	!	!	!	!	!	!
4C/	f	4G/	.	4c/	f	4e/	f	4cc\	.	4ee\	.	4C/	.	.	4c\	.	.	4e\	Prze-	.
=26	=26	=26	=26	=26	=26	=26	=26	=26	=26	=26	=26	=26	=26	=26	=26	=26	=26	=26	=26	=26
!	!	!	!	!	!	!	!	!	!	!LO:TX:t=P:problem=diminuendolike accent	!	!	!	!	!	!	!	!	!	!
4D\	.	4G/	.	4B/	.	4d/	.	4.b/	.	8dd^<\	.	4.D\	.	.	4.B\	.	.	(>8d\	-by-	.
.	.	.	.	.	.	.	.	.	.	4gg\	.	.	.	.	.	.	.	4g\)	.	.
4r	.	4r	.	4r	.	4r	.	.	.	.	.	.	.	.	.	.	.	.	.	.
.	.	.	.	.	.	.	.	8g/	.	8b\	.	8D\	.	.	8G/	.	.	8B\	-li	.
4D\	.	4d 4A\	.	4c/	.	4f#X/	.	(>16cc\LL	.	(>16ee\LL	.	8D\	.	.	16c\LL	.	.	(>16e\LL	cza-	.
.	.	.	.	.	.	.	.	16b\	.	16dd\	.	.	.	.	16B\JJ	.	.	16d\JJ	.	.
.	.	.	.	.	.	.	.	16.a\)	.	16.cc\)	.	16.D\	.	.	16.A/	.	.	16.c\)	-sy	.
.	.	.	.	.	.	.	.	32f#X|>\JJk	.	32a|>\JJk	.	32D\	.	.	32F#X/	.	.	32A\	prze-	.
!!LO:LB:g=original
=27	=27	=27	=27	=27	=27	=27	=27	=27	=27	=27	=27	=27	=27	=27	=27	=27	=27	=27	=27	=27
!	!	!	!	!	!	!	!	!	!	!LO:TX:t=P:problem=diminuendolike accent	!	!	!	!	!	!	!	!LO:TX:t=P:problem=diminuendolike accent	!	!
(>4D\	.	(>4d 4A\	.	(>4c/	.	(<4f#X/	.	(<4f#X/	.	(>4a^</	.	4D\	.	.	(<4F#X/	.	.	(>4A^</	-szło-	.
8GG/)	.	8d 8G\)	.	8B/)	.	8g/)	.	8g/)	.	8g/)	.	8G\	.	.	8G/)	.	.	8G/)	-ści	.
8r	.	8r	.	8r	.	8r	.	8r	.	8r	.	8r	.	.	8r	.	.	8r	.	.
!	!	!	!	!LO:TX:a:Bi:t=Unis	!	!	!	!	!	!	!	!	!	!	!	!	!	!LO:TX:a:Bi:t=Solo:rj	!	!
!	!	!	!	!	!LO:DY:b:rj	!	!LO:DY:b:rj	!	!	!	!	!	!	!	!	!	!	!	!	!
4r	.	4r	.	8.G/Lyy	py	8.G/L	p	4r	.	4r	.	4r	.	.	8.G/	.	.	8.G/	O-	.
.	.	.	.	16G/Jkyy	.	16G/Jk	.	.	.	.	.	.	.	.	16G/	.	.	16G/	-by	.
=28	=28	=28	=28	=28	=28	=28	=28	=28	=28	=28	=28	=28	=28	=28	=28	=28	=28	=28	=28	=28
!	!	!	!	!LO:TX:a:t=P:problem=w źródle unison oznaczony jako //	!	!	!	!	!	!	!	!	!	!	!	!	!	!	!	!
4r	.	4d\	.	4f/yy	.	4f/	.	2.ryy	.	2.ryy	.	4r	.	.	4d\	.	.	4f\	Bóg	.
!	!	!	!O:HP:b	!	!LO:HP:a	!	!LO:HP:a	!	!	!	!	!	!	!	!	!	!LO:HP:b	!	!	!LO:HP:b
8.A-X\L	.	[>2d\	<	[y<2f/yy	<	[<2f/	<	.	.	.	.	8.A-X\	.	.	[>2d\	.	<	[>2f\	na-	<
!	!LO:HP:b	!	!	!	!	!	!	!	!	!	!	!	!	!	!	!	!	!	!	!
16A-\Jk	<	.	.	.	.	.	.	.	.	.	.	16A-\	.	.	.	.	.	.	.	.
[>4G\	.	.	[[	.	.	.	.	.	.	.	.	4G\	.	.	.	.	.	.	.	.
=29	=29	=29	=29	=29	=29	=29	=29	=29	=29	=29	=29	=29	=29	=29	=29	=29	=29	=29	=29	=29
8.G\L]	[	8.d/L]	.	8.f/L]yy	[	8.f/L]	[	2.ryy	.	2.ryy	.	8.G\	.	.	8.d\]	.	[	8.f\]	.	[
16G\Jk	.	16c'</Jk	.	16e'>/Jkyy	.	16e'>/Jk	.	.	.	.	.	16G\	.	.	16c\	.	.	16e\	-gra-	.
!LO:TX:t=P:problem=mixed beam	!	!	!	!	!	!	!	!	!	!	!	!	!	!	!	!	!	!	!	!
8.G\L	.	8.B'</L	.	8.d'>/Lyy	.	8.d'>/L	.	.	.	.	.	8.G\	.	.	8.B\	.	.	8.d\	-dza-	.
16GG/Jk	.	16A'</Jk	.	16c'>/Jkyy	.	16c'>/Jk	.	.	.	.	.	16GG/	.	.	16A\	.	.	16c\	-iąc	.
8.GG/L	.	8.G'</L	.	8.B'>/Lyy	.	8.B'>/L	.	.	.	.	.	8.GG/	.	.	8.G/	.	.	8.B\	wa-	.
16GG/Jk	.	16F'</Jk	.	16A'>/Jkyy	.	16A'>/Jk	.	.	.	.	.	16GG/	.	.	16F/	.	.	16A\	-szą	.
=30	=30	=30	=30	=30	=30	=30	=30	=30	=30	=30	=30	=30	=30	=30	=30	=30	=30	=30	=30	=30
4.C 4.CC/	.	(>4F/	.	(y>4A^>/yy	.	(>4A^>/	.	2.ryy	.	2.ryy	.	4C/	.	.	4F/	.	.	4A/	cno-	.
.	.	8E/)	.	8G/)yy	.	8G/)	.	.	.	.	.	8C/	.	.	8E/	.	.	8G/	-tę	.
8r	.	8r	.	8ryy	.	8r	.	.	.	.	.	8r	.	.	8r	.	.	8r	.	.
4C^</	.	4E^>/	.	(y<8.G^>/Lyy	.	(<8.G^>/L	.	.	.	.	.	4C/	.	.	4E/	.	.	(<8.G/L	Do-	.
.	.	.	.	16c/Jk)yy	.	16c/Jk)	.	.	.	.	.	.	.	.	.	.	.	16c/Jk)	.	.
!!LO:PB:g=original
=31	=31	=31	=31	=31	=31	=31	=31	=31	=31	=31	=31	=31	=31	=31	=31	=31	=31	=31	=31	=31
!	!	!	!	!LO:TX:a:t=P:problem=w źródle unison kontunuowany i oznaczony jako //	!	!	!	!	!	!	!	!	!	!	!	!	!	!	!	!
!	!	!LO:TX:t=P:problem=diminuendolike accent	!	!LO:TX:t=P:problem=diminuendolike accent	!	!LO:TX:t=P:problem=diminuendolike accent	!	!	!	!	!	!	!	!	!	!	!	!	!	!
4.F\	.	4.F^</	.	(y>4B^>/yy	.	(>4B^>/	.	2.ryy	.	2.ryy	.	4F\	.	.	4F/	.	.	4B^>\	-zwo-	.
.	.	.	.	8A/)yy	.	8A/)	.	.	.	.	.	8F\	.	.	8F/	.	.	8A\	-lił	.
8r	.	8r	.	8ryy	.	8r	.	.	.	.	.	8r	.	.	8r	.	.	8r	.	.
!	!	!	!LO:HP:b	!	!LO:HP:a	!	!LO:HP:a	!	!	!	!	!	!	!LO:HP:a	!	!	!	!	!	!LO:HP:a
4F#X\	.	4A/	<	8.A/Lyy	<	8.A/L	<	.	.	.	.	4F#X\	Do-	<	4A/	.	.	(>8.A\L	.	<
.	.	.	[[	16d/Jkyy	.	16d/Jk	.	.	.	.	.	.	.	.	.	.	.	16d\Jk)	.	[[
=32	=32	=32	=32	=32	=32	=32	=32	=32	=32	=32	=32	=32	=32	=32	=32	=32	=32	=32	=32	=32
!	!	!	!LO:HP:b	!	!LO:HP:a	!	!LO:HP:a	!	!	!	!	!	!	!LO:HP:a	!	!	!	!	!	!LO:HP:a
4.G\	.	4.G/	>	(y<4c/yy	[ >	(<4c/	[ >	2.ryy	.	2.ryy	.	4G\	-zwo-	[ >	4G/	.	.	4c\	.	>
.	.	.	]	8B/)yy	]	8B/)	]	.	.	.	.	8G\	-lił	]	8G/	.	.	8B\	.	]
8r	.	8r	.	8ryy	.	8r	.	.	.	.	.	8r	.	.	8r	.	.	8r	.	.
4Fn\	.	4G/	.	4B/yy	.	4B/	.	.	.	.	.	4Fn\	Ob-	.	4G/	.	.	4B\	.	.
=33	=33	=33	=33	=33	=33	=33	=33	=33	=33	=33	=33	=33	=33	=33	=33	=33	=33	=33	=33	=33
(>4F\	.	4.G/	.	(y>4B/yy	.	(>4B/	.	2.ryy	.	2.ryy	.	4F\	-cho-	.	4G/	.	.	4B\	.	.
8E\)	.	.	.	8c/)yy	.	8c/)	.	.	.	.	.	8E\	-dzić	.	8G/	.	.	8c\	.	.
!	!	!	!	!	!LO:DY:a:rj	!	!LO:DY:a:rj	!	!	!	!	!	!	!LO:DY:a:rj	!	!	!LO:DY:a:rj	!	!	!LO:DY:a:rj
8E\L	.	8E/L	.	8e'>/Lyy	fyy	8e'>/L	f	.	.	.	.	8E\	We-	f	8e\	.	f	8e\	.	f
8D\	.	8D/	.	8d'>/yy	.	8d'>/	.	.	.	.	.	8D\	-se-	.	8d\	.	.	8d\	.	.
8C\J	.	8C/J	.	8c'>/Jyy	.	8c'>/J	.	.	.	.	.	8C\	-le	.	8c\	.	.	8c\	.	.
=34	=34	=34	=34	=34	=34	=34	=34	=34	=34	=34	=34	=34	=34	=34	=34	=34	=34	=34	=34	=34
4G\	.	4G/	.	4g/yy	.	4g/	.	2.ryy	.	2.ryy	.	(>2G\	zło-	.	(>2G/	.	.	(>2g\	.	.
4r	.	4r	.	4ryy	.	4r	.	.	.	.	.	.	.	.	.	.	.	.	.	.
4GG/	.	4f 4G/	.	4byy 4d/yy	.	4b 4d/	.	.	.	.	.	4GG/	.	.	4F/)	.	.	4B\)	.	.
=35	=35	=35	=35	=35	=35	=35	=35	=35	=35	=35	=35	=35	=35	=35	=35	=35	=35	=35	=35	=35
4C/	.	4e 4G/	.	4ccyyy 4e/yy	.	4cc 4e/	.	8ryy	.	4ryy	.	4C/)	-te	.	4E/	.	.	4c\	.	.
.	.	.	.	.	.	.	.	16g/LL	.	.	.	.	.	.	.	.	.	.	.	.
.	.	.	.	.	.	.	.	16g/JJ	.	.	.	.	.	.	.	.	.	.	.	.
!	!	!	!	!	!	!	!	!	!	!	!	!	!	!	!	!	!	!LO:TX:a:Bi:t=Choro	!	!
4r	.	4r	.	4ryy	.	4r	.	8g/L	.	4ryy	.	4r	.	.	4r	.	.	4r	.	.
.	.	.	.	.	.	.	.	16g/L	.	.	.	.	.	.	.	.	.	.	.	.
.	.	.	.	.	.	.	.	16g/JJ	.	.	.	.	.	.	.	.	.	.	.	.
4r	.	8.G/L	.	8.G/Lyy	.	8.G/L	.	8g/L	.	8.g/L	.	4r	.	.	8.G/L	.	.	8.G|>/L	O-	.
.	.	.	.	.	.	.	.	16g/L	.	.	.	.	.	.	.	.	.	.	.	.
.	.	16G/Jk	.	16G/Jkyy	.	16G/Jk	.	16g/JJ	.	16g/Jk	.	.	.	.	16G/Jk	.	.	16G|>/Jk	-by	.
!!LO:LB:g=original
=36	=36	=36	=36	=36	=36	=36	=36	=36	=36	=36	=36	=36	=36	=36	=36	=36	=36	=36	=36	=36
!LO:TX:t=P:problem:problem=w źródle 5 taktów ukryte [nieoznaczona powtórka]	!	!LO:TX:t=P:problem:problem=w źródle 5 taktów ukryte [nieoznaczona powtórka]	!	!	!	!	!	!	!	!	!	!	!	!	!	!	!	!	!	!
!	!	!	!	!LO:TX:t=P:problem:problem=w źródle 5 taktów ukryte [nieoznaczona powtórka]	!	!LO:TX:t=P:problem:problem=w źródle 5 taktów ukryte [nieoznaczona powtórka]	!	!	!	!	!	!	!	!	!	!	!	!	!	!
4ryy	.	4d\yy	.	4f/yy	.	4f/yy	.	4dd\	.	4ff\	.	4r	.	.	4d\	.	.	4f\	Bóg	.
!	!	!	!LO:HP:b	!	!LO:HP:a	!	!LO:HP:a	!	!LO:HP:b	!	!LO:HP:b	!	!	!	!	!	!	!	!	!LO:HP:b
8.A-X\Lyy	.	[y>2d\yy	<	[y<2f/yy	<	[y<2f/yy	<	[>2dd\	<	[>2ff\	<	8.A-X\	O-	.	[>2d\	.	.	[>2f\	na-	<
!	!LO:HP:b	!	!	!	!	!	!	!	!	!	!	!	!	!	!	!	!	!	!	!
16A-\Jkyy	<	.	.	.	.	.	.	.	.	.	.	16A-\	-by	.	.	.	.	.	.	.
[y>4G\yy	.	.	[[	.	.	.	.	.	[[	.	.	4G\	Bóg	.	.	.	.	.	.	[[
=37	=37	=37	=37	=37	=37	=37	=37	=37	=37	=37	=37	=37	=37	=37	=37	=37	=37	=37	=37	=37
8.G\L]yy	[	8.d/L]yy	.	8.f/L]yy	[	8.f/L]yy	[	8.dd\L]	.	8.ff\L]	[	8.G\	na-	.	8.d\]	.	.	8.f\]	.	.
16G\Jkyy	.	16c'</Jkyy	.	16e'>/Jkyy	.	16e'>/Jkyy	.	16cc\Jk	.	16ee\Jk	.	16G\	-gra-	.	16c\	.	.	16e\	-gra-	.
!LO:TX:t=P:problem=mixed beam	!	!	!	!	!	!	!	!	!	!	!	!	!	!	!	!	!	!	!	!
8.G\Lyy	.	8.B'</Lyy	.	8.d'>/Lyy	.	8.d'>/Lyy	.	8.b/L	.	8.dd\L	.	8.G\	-dza-	.	8.B\	.	.	8.d\	-dza-	.
16GG/Jkyy	.	16A'</Jkyy	.	16c'>/Jkyy	.	16c'>/Jkyy	.	16a/Jk	.	16cc\Jk	.	16G\	-iąc	.	16A\	.	.	16c\	-iąc	.
8.GG/Lyy	.	8.G'</Lyy	.	8.B'>/Lyy	.	8.B'>/Lyy	.	8.g/L	.	8.b/L	.	8.GG/	wa-	.	8.G/	.	.	8.B\	wa-	.
16GG/Jkyy	.	16F'</Jkyy	.	16A'>/Jkyy	.	16A'>/Jkyy	.	16f/Jk	.	16a/Jk	.	16GG/	-szą	.	16F/	.	.	16A\	-szą	.
=38	=38	=38	=38	=38	=38	=38	=38	=38	=38	=38	=38	=38	=38	=38	=38	=38	=38	=38	=38	=38
4.Cyy 4.CC/yy	.	(y>4F/yy	.	(y>4A^>/yy	.	(y>4A^>/yy	.	(<4f/	.	(<4a/	.	4C/	cno-	.	4F/	.	.	4A/	cno-	.
.	.	8E/)yy	.	8G/)yy	.	8G/)yy	.	8e/)	.	8g/)	.	8C/	-tę	.	8E/	.	.	8G/	-tę	.
8ryy	.	8ryy	.	8ryy	.	8ryy	.	8r	.	8r	.	8r	.	.	8r	.	.	8r	.	.
!	!	!	!	!	!	!	!	!	!	!	!LO:HP:b	!	!	!LO:HP:a	!	!	!	!	!	!
4C^</yy	.	4E^>/yy	.	(y<8.G^>/Lyy	.	(y<8.G^>/Lyy	.	4g/	.	(<8.g/L	<	4C/	.	<	4G/	.	.	(<8.G/L	Do-	.
.	.	.	.	16c/Jk)yy	.	16c/Jk)yy	.	.	.	16cc/Jk)	[[	.	.	.	.	.	.	16c/Jk)	.	.
=39	=39	=39	=39	=39	=39	=39	=39	=39	=39	=39	=39	=39	=39	=39	=39	=39	=39	=39	=39	=39
!	!	!LO:TX:t=P:problem=diminuendolike accent	!	!LO:TX:t=P:problem=diminuendolike accent	!	!LO:TX:t=P:problem=diminuendolike accent	!	!	!	!	!	!	!	!	!	!	!	!	!	!
!	!	!	!	!	!	!	!	!	!	!	!LO:HP:b	!	!	!LO:HP:a	!	!	!	!	!	!
4.F\yy	.	4.F^</yy	.	(y>4B^>/yy	.	(y>4B^>/yy	.	4.f/	.	(>4b/	>	4F\	.	[ >	4F/	.	.	4B\	-zwo-	.
.	.	.	.	8A/)yy	.	8A/)yy	.	.	.	8a/)	]	8F\	.	]	8F/	.	.	8A\	-lił	.
8ryy	.	8ryy	.	8ryy	.	8ryy	.	8r	.	8r	.	8r	.	.	8r	.	.	8r	.	.
!	!	!	!	!	!	!	!	!LO:N:vis=4.	!	!	!	!	!	!	!	!	!	!	!	!
!	!	!	!LO:HP:b	!	!LO:HP:a	!	!LO:HP:a	!	!	!	!LO:HP:b	!	!	!LO:HP:a	!	!	!	!	!	!
4F#X\yy	.	4A/yy	<	8.A/Lyy	<	8.A/Lyy	<	4a/	.	(<8.a/L	<	4F#X\	.	<	4A/	.	.	(>8.A\L	Do-	.
.	.	.	[[	16d/Jkyy	.	16d/Jkyy	.	.	.	16dd/Jk)	[[	.	.	.	.	.	.	16d\Jk)	.	.
!!LO:PB:g=original
=40	=40	=40	=40	=40	=40	=40	=40	=40	=40	=40	=40	=40	=40	=40	=40	=40	=40	=40	=40	=40
!	!	!	!LO:HP:b	!	!LO:HP:a	!	!LO:HP:a	!	!	!	!	!	!	!	!	!	!	!LO:TX:t=P:problem=diminuendolike accent	!	!
4.G\yy	.	4.G/yy	>	(y<4c/yy	[ >	(y<4c/yy	[ >	4.g/	.	(>4cc\	.	4G\	.	[	4G/	.	.	4c^>\	-zwo-	.
.	.	.	]	8B/)yy	]	8B/)yy	]	.	.	8b\)	.	8G\	.	.	8G/	.	.	8B\	-lił	.
8ryy	.	8ryy	.	8ryy	.	8ryy	.	8r	.	8r	.	8r	.	.	8r	.	.	8r	.	.
4Fn\yy	.	4G/yy	.	4B/yy	.	4B/yy	.	[<4g/	.	4b\	.	4Fn\	.	.	4G/	.	.	4B\	Ob-	.
=41	=41	=41	=41	=41	=41	=41	=41	=41	=41	=41	=41	=41	=41	=41	=41	=41	=41	=41	=41	=41
(>4F\	.	4.G/	.	(<4B/	.	(<4B/	.	8g/L]	.	(>4b\	.	4F\	.	.	4G/	.	.	4B\	-cho-	.
.	.	.	.	.	.	.	.	16g/L	.	.	.	.	.	.	.	.	.	.	.	.
.	.	.	.	.	.	.	.	16g/JJ	.	.	.	.	.	.	.	.	.	.	.	.
8E\)	.	.	.	8c/)	.	8c/)	.	8g/	.	8cc\)	.	8E\	.	.	8G/	.	.	8c\	-dzić	.
*	*	*tremolo	*	*tremolo	*	*tremolo	*	*	*	*	*	*	*	*	*	*	*	*	*	*
!	!LO:DY:b:rj	!	!LO:DY:b:rj	!	!	!	!LO:DY:b:rj	!	!LO:DY:a:rj	!	!LO:DY:a:rj	!	!	!LO:DY:a:rj	!	!	!LO:DY:a:rj	!	!	!LO:DY:a:rj
8E\L	f	16e\LL	f	16e/LL	.	16ee\LL	f	8e'</L	f	8ee'>\	f	8E\	.	f	8e\	.	f	8e\	we-	f
.	.	16e\	.	16e/	.	16ee\	.	.	.	.	.	.	.	.	.	.	.	.	.	.
8D\	.	16d\	.	16d/	.	16dd\	.	8d'</	.	8dd'>\	.	8D\	.	.	8d\	.	.	8d\	-se-	.
.	.	16d\	.	16d/	.	16dd\	.	.	.	.	.	.	.	.	.	.	.	.	.	.
!	!	!	!	!	!	!	!	!LO:TX:a:t=P:problem=w źródle staccato delikatnie wytarte	!	!	!	!	!	!	!	!	!	!	!	!
8C\J	.	16c\	.	16c/	.	16cc\	.	8c'</J	.	8cc'>\	.	8C\	.	.	8c\	.	.	8c\	-le	.
.	.	16c\JJ	.	16c/JJ	.	16cc\JJ	.	.	.	.	.	.	.	.	.	.	.	.	.	.
*	*	*Xtremolo	*	*Xtremolo	*	*Xtremolo	*	*	*	*	*	*	*	*	*	*	*	*	*	*
=42	=42	=42	=42	=42	=42	=42	=42	=42	=42	=42	=42	=42	=42	=42	=42	=42	=42	=42	=42	=42
2G\	.	2g\	.	2g/	.	2gg\	.	8g/L	.	(>2gg\	.	2G\	.	.	(<2G/	.	.	(>2g\	zło-	.
.	.	.	.	.	.	.	.	16g/L	.	.	.	.	.	.	.	.	.	.	.	.
.	.	.	.	.	.	.	.	16g/JJ	.	.	.	.	.	.	.	.	.	.	.	.
*	*	*	*	*	*	*	*	*rep	*	*	*	*	*	*	*	*	*	*	*	*
.	.	.	.	.	.	.	.	8g/L	.	.	.	.	.	.	.	.	.	.	.	.
.	.	.	.	.	.	.	.	16g/L	.	.	.	.	.	.	.	.	.	.	.	.
.	.	.	.	.	.	.	.	16g/JJ	.	.	.	.	.	.	.	.	.	.	.	.
*	*	*	*	*	*	*	*	*Xrep	*	*	*	*	*	*	*	*	*	*	*	*
*	*	*	*	*	*	*	*	*rep	*	*	*	*	*	*	*	*	*	*	*	*
4GG/	.	4G/	.	4f 4G/	.	4b 4d/	.	8g/L	.	4b\)	.	4GG/	.	.	4F/)	.	.	4B\)	.	.
.	.	.	.	.	.	.	.	16g/L	.	.	.	.	.	.	.	.	.	.	.	.
.	.	.	.	.	.	.	.	16g/JJ	.	.	.	.	.	.	.	.	.	.	.	.
*	*	*	*	*	*	*	*	*Xrep	*	*	*	*	*	*	*	*	*	*	*	*
=43	=43	=43	=43	=43	=43	=43	=43	=43	=43	=43	=43	=43	=43	=43	=43	=43	=43	=43	=43	=43
4C/	.	4c\	.	4e 4G/	.	4cc 4e/	.	4c/	.	4cc\	.	4C/	.	.	4E/	.	.	4c\	-te	.
8CC/	.	8e 8G 8C\	.	8cc 8e 8G/	.	8ccc 8ee 8g\	.	8cc\	.	8ccc\	.	4r;>	.	.	4r;>	.	.	4r;>	.	.
8r;>	.	8r;>	.	8r;>	.	8r;>	.	8r;>	.	8r;>	.	.	.	.	.	.	.	.	.	.
=44||	=44||	=44||	=44||	=44||	=44||	=44||	=44||	=44||	=44||	=44||	=44||	=44||	=44||	=44||	=44||	=44||	=44||	=44||	=44||	=44||
*M2/4	*	*M2/4	*	*M2/4	*	*M2/4	*	*M2/4	*	*M2/4	*	*M2/4	*	*	*M2/4	*	*	*M2/4	*	*
!	!	!	!	!	!	!	!	!	!	!	!	!	!	!	!	!	!	!LO:TX:a:Bi:t=Solo (au tto.)	!	!
!	!LO:DY:a:rj	!	!	!	!	!	!LO:DY:b:rj	!	!	!	!	!	!	!	!	!	!	!	!	!
4G\	p	4G/	.	4G/	.	4G/	p	4r	.	4r	.	4G\	.	.	4G/	.	.	4G/	A	.
!!LO:LB:g=original
=45	=45	=45	=45	=45	=45	=45	=45	=45	=45	=45	=45	=45	=45	=45	=45	=45	=45	=45	=45	=45
*Xtuplet	*	*Xtuplet	*	*	*	*	*	*	*	*	*	*Xtuplet	*	*	*Xtuplet	*	*	*	*	*
!	!	!	!	!	!	!	!	!	!	!LO:TX:a:t=P:problem=w źródle wytarte półtora taktu i poprawione przez skryptora	!	!	!	!	!	!	!	!	!	!
!	!	!	!	!LO:TX:a:t=P:problem=w źródle unison oznaczony jako //	!	!	!	!	!	!	!	!	!	!	!	!	!	!	!	!
4C/	.	4E/	.	4c/yy	.	4c/	.	2r	.	2r	.	4C/	.	.	4E/	.	.	4c\	my	.
!	!	!	!	!LO:TUP:a	!	!LO:TUP:a	!	!	!	!	!	!	!	!	!	!	!	!LO:TUP:a:problem=brak klamry	!	!
12BB/L	.	12G'</L	.	12d'</Lyy	.	12d'</L	.	.	.	.	.	12BB/	.	.	12F/	.	.	12d\	ie-	.
12C/	.	12c'</	.	12e'</yy	.	12e'</	.	.	.	.	.	12C/	.	.	12c\	.	.	12e\	-dnym	.
12GG/J	.	12d'</J	.	12f'</Jyy	.	12f'</J	.	.	.	.	.	12GG/	.	.	12d\	.	.	12f\	wy-	.
*tuplet	*	*tuplet	*	*	*	*	*	*	*	*	*	*tuplet	*	*	*tuplet	*	*	*	*	*
=46	=46	=46	=46	=46	=46	=46	=46	=46	=46	=46	=46	=46	=46	=46	=46	=46	=46	=46	=46	=46
8C/L	.	8c/L	.	8e/Lyy	.	8e/L	.	4r	.	4r	.	8C/	.	.	8c\	.	.	8e\	-ra-	.
8C/J	.	8E/J	.	8c/Jyy	.	8c/J	.	.	.	.	.	8C/	.	.	8E/	.	.	8c\	-zem	.
!	!LO:DY:a:rj	!	!LO:DY:a:rj	!	!LO:DY:a:rj	!	!LO:DY:a:rj	!	!	!	!LO:DY:a:rj	!	!	!	!	!	!	!LO:TX:a:Bi:t=tutti:rj	!	!
4GG/	f	4G/	f	4G/yy	fyy	4G/	f	4g/	.	4g/	f	4G\	.	.	4G/	.	.	4G/	A	.
=47	=47	=47	=47	=47	=47	=47	=47	=47	=47	=47	=47	=47	=47	=47	=47	=47	=47	=47	=47	=47
*Xtuplet	*	*	*	*	*	*	*	*	*	*	*	*Xtuplet	*	*	*Xtuplet	*	*	*	*	*
4C/	.	4E/	.	4c/yy	.	4c/	.	4e/	.	4cc\	.	4C/	.	.	4E/	.	.	4c\	my	.
!	!	!LO:TUP:b	!	!LO:TUP:a	!	!LO:TUP:a	!	!LO:TUP:a	!	!LO:TUP:a	!	!	!	!	!	!	!	!LO:TUP:a:problem=brak klamry	!	!
12BB/L	.	12G/L	.	12d'</Lyy	.	12d'</L	.	12g'>\L	.	12dd'>\L	.	12BB/	.	.	12G/	.	.	12d\	ie-	.
12C/	.	12c/	.	12e'</yy	.	12e'</	.	12cc'>\	.	12ee'>\	.	12C/	.	.	12c\	.	.	12e\	-dnym	.
12GG/J	.	12d/J	.	12f'</Jyy	.	12f'</J	.	12dd'>\J	.	12ff'>\J	.	12GG/	.	.	12d\	.	.	12f\	wy-	.
*tuplet	*	*	*	*	*	*	*	*	*	*	*	*tuplet	*	*	*tuplet	*	*	*	*	*
=48	=48	=48	=48	=48	=48	=48	=48	=48	=48	=48	=48	=48	=48	=48	=48	=48	=48	=48	=48	=48
8C/L	.	8c/L	.	8e/Lyy	.	8e/L	.	8cc/L	.	8ee\L	.	8C/	.	.	8c\	.	.	8e\	-ra-	.
8CC/J	.	8E/J	.	8c/Jyy	.	8c/J	.	8e/J	.	8cc\J	.	8C/	.	.	8E/	.	.	8c\	-zem	.
!	!LO:DY:a:rj	!	!LO:DY:a:rj	!	!LO:DY:b:rj	!	!LO:DY:b:rj	!	!	!	!	!	!	!	!	!	!	!LO:TX:a:Bi:t=Solo:rj	!	!
4GG/	p	4G/	p	4G/yy	pyy	4G/	p	4r	.	4r	.	4G\	.	.	4G/	.	.	4G/	Jak	.
=49	=49	=49	=49	=49	=49	=49	=49	=49	=49	=49	=49	=49	=49	=49	=49	=49	=49	=49	=49	=49
*Xtuplet	*	*Xtuplet	*	*	*	*	*	*	*	*	*	*Xtuplet	*	*	*Xtuplet	*	*	*	*	*
4C/	.	4E/	.	4c/yy	.	4c/	.	2r	.	2r	.	4C/	.	.	4E/	.	.	4c\	dziś	.
!	!	!	!	!LO:TUP:a	!	!LO:TUP:a	!	!	!	!	!	!	!	!	!	!	!	!LO:TUP:a:problem=brak klamry	!	!
12BB/L	.	12G'</L	.	12d'</Lyy	.	12d'</L	.	.	.	.	.	12BB/	.	.	12G/	.	.	12d\	gdy	.
12C/	.	12c'</	.	12e'</yy	.	12e'</	.	.	.	.	.	12C/	.	.	12c\	.	.	12e\	bę-	.
12GG/J	.	12d'</J	.	12f'</Jyy	.	12f'</J	.	.	.	.	.	12GG/	.	.	12d\	.	.	12f\	-dziem	.
*tuplet	*	*tuplet	*	*	*	*	*	*	*	*	*	*tuplet	*	*	*tuplet	*	*	*	*	*
!!LO:PB:g=original
=50	=50	=50	=50	=50	=50	=50	=50	=50	=50	=50	=50	=50	=50	=50	=50	=50	=50	=50	=50	=50
!	!	!	!	!LO:TX:a:t=P:problem=w źródle unison kontunuowany i oznaczony jako //	!	!	!	!	!	!	!	!	!	!	!	!	!	!	!	!
8C/L	.	8c/L	.	8e/Lyy	.	8e/L	.	4r	.	4r	.	8C/	.	.	8c\	.	.	8e\	.	.
8C/J	.	8E/J	.	8c/Jyy	.	8c/J	.	.	.	.	.	8C/	.	.	8E/	.	.	8c\	.	.
!	!	!	!	!	!	!	!	!	!	!	!	!	!	!	!	!	!	!LO:TX:a:Bi:t=tutti:rj	!	!
!	!LO:DY:a:rj	!	!LO:DY:a:rj	!	!LO:DY:a:rj	!	!LO:DY:a:rj	!	!	!	!LO:DY:b:rj	!	!	!	!	!	!	!	!	!LO:DY:a:rj
4G\	f	4G/	f	4G/yy	fyy	4G/	f	4g/	.	4g/	f	4G\	.	.	4G/	.	.	4G/	.	f
=51	=51	=51	=51	=51	=51	=51	=51	=51	=51	=51	=51	=51	=51	=51	=51	=51	=51	=51	=51	=51
*Xtuplet	*	*Xtuplet	*	*	*	*	*	*Xtuplet	*	*	*	*Xtuplet	*	*	*Xtuplet	*	*	*Xtuplet	*	*
4C/	.	4E/	.	4c/yy	.	4c/	.	4e/	.	4cc\	.	4C/	.	.	4E/	.	.	4c\	.	.
!	!	!	!	!LO:TUP:a	!	!LO:TUP:a	!	!	!	!LO:TUP:a	!	!	!	!	!	!	!	!	!	!
12BB/L	.	12G'</L	.	12d'</Lyy	.	12d'</L	.	12g'</L	.	12dd'>\L	.	12BB/	.	.	12G/	.	.	12d\	.	.
12C/	.	12c'</	.	12e'</yy	.	12e'</	.	12cc'</	.	12ee'>\	.	12C/	.	.	12c\	.	.	12e\	.	.
12GG/J	.	12d'</J	.	12f'</Jyy	.	12f'</J	.	12dd'</J	.	12ff'>\J	.	12GG/	.	.	12d\	.	.	12f\	.	.
*tuplet	*	*tuplet	*	*	*	*	*	*tuplet	*	*	*	*tuplet	*	*	*tuplet	*	*	*tuplet	*	*
=52	=52	=52	=52	=52	=52	=52	=52	=52	=52	=52	=52	=52	=52	=52	=52	=52	=52	=52	=52	=52
8C/L	.	8c/L	.	8e/Lyy	.	8e/L	.	8cc/L	.	8ee\L	.	8C/	.	.	8c\	.	.	8e\	.	.
8CC/J	.	8E/J	.	8c/Jyy	.	8c/J	.	8e/J	.	8cc\J	.	8C/	.	.	8E/	.	.	8c\	.	.
8r;>	.	8r;>	.	8r;>	.	8r;>	.	8r;>	.	8r;>	.	8r;>	.	.	8r;>	.	.	8r;>	.	.
=53||	=53||	=53||	=53||	=53||	=53||	=53||	=53||	=53||	=53||	=53||	=53||	=53||	=53||	=53||	=53||	=53||	=53||	=53||	=53||	=53||
*k[b-]	*	*k[b-]	*	*k[b-]	*	*k[b-]	*	*k[b-]	*	*k[b-]	*	*k[b-]	*	*	*k[b-]	*	*	*k[b-]	*	*
*M3/8	*	*M3/8	*	*M3/8	*	*M3/8	*	*M3/8	*	*M3/8	*	*M3/8	*	*	*M3/8	*	*	*M3/8	*	*
!	!	!	!	!LO:TX:a:t=P:problem=w źródle unison kontunuowany i oznaczony jako //	!	!	!	!	!	!	!	!	!	!	!	!	!	!	!	!
!	!	!	!	!	!	!	!	!	!	!	!	!	!	!	!	!	!	!LO:TX:a:Bi:t=Solo:rj	!	!
!LO:TX:t=P:problem=mixed beam	!	!	!	!	!	!	!	!	!	!	!	!	!	!	!	!	!	!	!	!
!	!LO:DY:b:rj	!	!LO:DY:b:rj	!	!LO:DY:a:rj	!	!LO:DY:a:rj	!	!	!	!	!	!	!	!	!	!	!	!	!
16.FF/LL	p	16.A|</LL	p	16.c|>/LLyy	pyy	16.c|>/LL	p	8r	.	8r	.	16.F\	.	.	16.A/	.	.	16.c\	.	.
32F\JJk	.	32G#X|</JJk	.	32Bn|>/JJkyy	.	32Bn|>/JJk	.	.	.	.	.	32F\	.	.	32G#X/	.	.	32Bn\	.	.
=54	=54	=54	=54	=54	=54	=54	=54	=54	=54	=54	=54	=54	=54	=54	=54	=54	=54	=54	=54	=54
8F\L	.	8A/L	.	8c/Lyy	.	8c/L	.	4.r	.	4.r	.	8F\	.	.	8A/	.	.	8c\	.	.
8F\J	.	8F/J	.	8A/Jyy	.	8A/J	.	.	.	.	.	8F\	.	.	8F/	.	.	8A\	.	.
.	.	(<8qB-/	.	(y<8qd/yy	.	(<8qd/	.	.	.	.	.	.	.	.	(<8qB-/	.	.	(>8qd/	.	.
!LO:TX:t=P:problem=mixed beam	!	!	!	!	!	!	!	!	!	!	!	!	!	!	!	!	!	!	!	!
16.FF/LL	.	16.A/LL)	.	16.c/LL)yy	.	16.c/LL)	.	.	.	.	.	16.F\	.	.	16.A/)	.	.	16.c\)	.	.
32F\JJk	.	32G#X/JJk	.	32Bn/JJkyy	.	32Bn/JJk	.	.	.	.	.	32F\	.	.	32G#X/	.	.	32Bn\	.	.
!!LO:LB:g=original
=55	=55	=55	=55	=55	=55	=55	=55	=55	=55	=55	=55	=55	=55	=55	=55	=55	=55	=55	=55	=55
!	!	!	!	!LO:TX:a:t=P:problem=w źródle unison kontunuowany i oznaczony jako //	!	!	!	!	!	!	!	!	!	!	!	!	!	!	!	!
8F\L	.	8A/L	.	8c/Lyy	.	8c/L	.	4.r	.	4.r	.	8F\	.	.	8A/	.	.	8c\	.	.
8F\J	.	8F/J	.	8A/Jyy	.	8A/J	.	.	.	.	.	8F\	.	.	8F/	.	.	8A\	.	.
!LO:TX:t=P:problem=mixed beam	!	!	!	!	!	!	!	!	!	!	!	!	!	!	!	!	!	!	!	!
16.FF/LL	.	16.A/LL	.	16.c/LLyy	.	16.c/LL	.	.	.	.	.	16.F\	.	.	16.A/	.	.	16.c\	.	.
32F\JJk	.	32A/JJk	.	32f/JJkyy	.	32f/JJk	.	.	.	.	.	32F\	.	.	32A/	.	.	32f\	.	.
=56	=56	=56	=56	=56	=56	=56	=56	=56	=56	=56	=56	=56	=56	=56	=56	=56	=56	=56	=56	=56
(>4.C^</	.	(>4.B- 4.C/	.	4.eyy [y<4.G^</yy	.	4.e [<4.G^</	.	4.r	.	16.r	.	4.C/	.	.	4.G/	.	.	4.e\	.	.
.	.	.	.	.	.	.	.	.	.	(>32gg\KLL	.	.	.	.	.	.	.	.	.	.
.	.	.	.	.	.	.	.	.	.	16.ee\)	.	.	.	.	.	.	.	.	.	.
.	.	.	.	.	.	.	.	.	.	(>32cc\K	.	.	.	.	.	.	.	.	.	.
.	.	.	.	.	.	.	.	.	.	16.b-\)	.	.	.	.	.	.	.	.	.	.
.	.	.	.	.	.	.	.	.	.	(>32g\JJk	.	.	.	.	.	.	.	.	.	.
=57	=57	=57	=57	=57	=57	=57	=57	=57	=57	=57	=57	=57	=57	=57	=57	=57	=57	=57	=57	=57
8F\)	.	8A 8F/)	.	8fyy 8G/]yy	.	8f 8G/]	.	4.r	.	8f/)	.	8F\	.	.	8A/	.	.	8f\	.	.
8r	.	8r	.	8ryy	.	8r	.	.	.	8r	.	8r	.	.	8r	.	.	8r	.	.
16.BB-/LL	.	16.F/LL	.	16.d/LLyy	.	16.d/LL	.	.	.	8r	.	16.BB-/	.	.	16.F/	.	.	16.d\	.	.
32BB-/JJk	.	32E/JJk	.	32c#X/JJkyy	.	32c#X/JJk	.	.	.	.	.	32BB-/	.	.	32E/	.	.	32c#X\	.	.
=58	=58	=58	=58	=58	=58	=58	=58	=58	=58	=58	=58	=58	=58	=58	=58	=58	=58	=58	=58	=58
8BB-/L	.	8F/L	.	8d/Lyy	.	8d/L	.	4.r	.	4.r	.	8BB-/	.	.	8F/	.	.	8d\	.	.
8BB-/J	.	8D/J	.	8B-/Jyy	.	8B-/J	.	.	.	.	.	8BB-/	.	.	8D/	.	.	8B-\	.	.
.	.	(<8qG/	.	(y<8qe/yy	.	(<8qe/	.	.	.	.	.	.	.	.	.	.	.	.	.	.
16.BB-/LL	.	16.F/LL)	.	16.d/LL)yy	.	16.d/LL)	.	.	.	.	.	16.BB-/	.	.	16.F/	.	.	16.d\	.	.
32BB-/JJk	.	32E/JJk	.	32c#X/JJkyy	.	32c#X/JJk	.	.	.	.	.	32BB-/	.	.	32E/	.	.	32c#X\	.	.
=59	=59	=59	=59	=59	=59	=59	=59	=59	=59	=59	=59	=59	=59	=59	=59	=59	=59	=59	=59	=59
8BB-/L	.	8F/L	.	8d/Lyy	.	8d/L	.	4.r	.	4.r	.	8BB-/	.	.	8F/	.	.	8d\	.	.
8BB-/J	.	8D/J	.	8B-/Jyy	.	8B-/J	.	.	.	.	.	8BB-/	.	.	8D/	.	.	8B-\	.	.
16.BB-/LL	.	16.B-/LL	.	16.d/LLyy	.	16.d/LL	.	.	.	.	.	16.BB-/	.	.	16.B-\	.	.	16.d\	.	.
32GG/JJk	.	32B-/JJk	.	32g/JJkyy	.	32g/JJk	.	.	.	.	.	32GG/	.	.	32B-\	.	.	32g\	.	.
!!LO:PB:g=original
=60	=60	=60	=60	=60	=60	=60	=60	=60	=60	=60	=60	=60	=60	=60	=60	=60	=60	=60	=60	=60
!	!	!	!	!LO:TX:a:t=P:problem=w źródle unison kontunuowany i oznaczony jako //	!	!	!	!	!	!	!	!	!	!	!	!	!	!	!	!
4.C/	.	4.B- 4.C/	.	4.eyy 4.G/yy	.	4.e 4.G/	.	16.e/LL	.	16.g/LL	.	4.C/	.	.	4.G/	.	.	4.e\	Knie-	.
.	.	.	.	.	.	.	.	32f/K	.	32a/K	.	.	.	.	.	.	.	.	.	.
.	.	.	.	.	.	.	.	16.g/	.	16.b-/	.	.	.	.	.	.	.	.	.	.
.	.	.	.	.	.	.	.	32a/K	.	32cc/K	.	.	.	.	.	.	.	.	.	.
.	.	.	.	.	.	.	.	16.b-/	.	16.dd/	.	.	.	.	.	.	.	.	.	.
.	.	.	.	.	.	.	.	32g/JJk	.	32ee/JJk	.	.	.	.	.	.	.	.	.	.
=61	=61	=61	=61	=61	=61	=61	=61	=61	=61	=61	=61	=61	=61	=61	=61	=61	=61	=61	=61	=61
8F\	.	8A 8F/	.	8fyy 8A/yy	.	8f 8A/	.	8a/	.	8ff\	.	8F\	.	.	8A/	.	.	8f\	-my	.
8r	.	8r	.	8r	.	8r	.	8r	.	8r	.	8r	.	.	8r	.	.	8r	.	.
!	!	!	!	!	!	!	!	!	!	!	!	!	!	!	!	!	!	!LO:TX:a:Bi:t=Choro:rj	!	!
!LO:TX:t=P:problem=mixed beam	!	!	!	!	!	!	!	!	!	!	!	!	!	!	!	!	!	!	!	!
!	!LO:DY:b:rj	!	!	!	!LO:DY:b:rj	!	!LO:DY:b:rj	!	!	!	!	!	!	!	!	!	!	!	!	!
16.FF/LL	f	16.A/LL	.	16.c/LL	f	16.f/LL	f	16.a/LL	.	16.cc\LL	.	16.F\	.	.	16.A/	.	.	16.c\	Nu-	.
32F\JJk	.	32G#X/JJk	.	32Bn/JJk	.	32f/JJk	.	32g#X/JJk	.	32bn\JJk	.	32F\	.	.	32G#X/	.	.	32Bn\	-cić	.
=62	=62	=62	=62	=62	=62	=62	=62	=62	=62	=62	=62	=62	=62	=62	=62	=62	=62	=62	=62	=62
!LO:TX:t=P:problem=mixed beam	!	!	!	!	!	!	!	!	!	!	!	!	!	!	!	!	!	!	!	!
8FF/L	.	8A/L	.	8c/L	.	8f/L	.	8a/L	.	8cc\L	.	8F\	.	.	8A/	.	.	8c\	w ko-	.
8F\J	.	8F/J	.	8A/J	.	8f/J	.	8f/J	.	8a\J	.	8F\	.	.	8F/	.	.	8A\	-ło	.
!LO:TX:t=P:problem=mixed beam	!	!	!	!	!	!	!	!	!	!	!	!	!	!	!	!	!	!	!	!
.	.	(<8qB-/	.	(<8qd/	.	.	.	8qb-/	.	(<8qdd/	.	.	.	.	8qB-/	.	.	8qd/	.	.
16.FF/LL	.	16.A/LL)	.	16.c/LL)	.	16.f/LL	.	16.a/LL	.	16.cc\LL)	.	16.F\	.	.	16.A/	.	.	16.c\	i	.
32F\JJk	.	32G#X/JJk	.	32Bn/JJk	.	32f/JJk	.	32g#X/JJk	.	32bn\JJk	.	32F\	.	.	32G#X/	.	.	32Bn\	we-	.
=63	=63	=63	=63	=63	=63	=63	=63	=63	=63	=63	=63	=63	=63	=63	=63	=63	=63	=63	=63	=63
*rep	*	*	*	*	*	*	*	*	*	*	*	*	*	*	*	*	*	*	*	*
!LO:TX:t=P:problem=mixed beam	!	!	!	!	!	!	!	!	!	!	!	!	!	!	!	!	!	!	!	!
8FF/L	.	8A/L	.	8c/L	.	8f/L	.	8a/L	.	8cc\L	.	8F\	.	.	8A/	.	.	8c\	-so-	.
8F\J	.	8F/J	.	8A/J	.	8f/J	.	8f/J	.	8a\J	.	8F\	.	.	8F/	.	.	8A\	-ło	.
!LO:TX:t=P:problem=mixed beam	!	!	!	!	!	!	!	!	!	!	!	!	!	!	!	!	!	!	!	!
16.FF/LL	.	16.A/LL	.	16.c/LL	.	16.c/LL	.	16.a/LL	.	16.cc\LL	.	16.F\	.	.	16.A/	.	.	16.c\	wciąż	.
32F\JJk	.	32A/JJk	.	32f/JJk	.	32f/JJk	.	32a/JJk	.	32ff\JJk	.	32F\	.	.	32A/	.	.	32f\	bę-	.
*Xrep	*	*	*	*	*	*	*	*	*	*	*	*	*	*	*	*	*	*	*	*
=64	=64	=64	=64	=64	=64	=64	=64	=64	=64	=64	=64	=64	=64	=64	=64	=64	=64	=64	=64	=64
!	!	!	!	!LO:TX:a:Bi:t=Unis	!	!	!	!	!	!	!	!	!	!	!	!	!	!	!	!
4.C/	.	4.B- 4.C/	.	4.eyy 4.G/yy	.	4.e 4.G/	.	16f/LL	.	16.ee\LL	.	4.C/	.	.	4.G/	.	.	4.e\	-dzie-	.
.	.	.	.	.	.	.	.	32c/L	.	.	.	.	.	.	.	.	.	.	.	.
.	.	.	.	.	.	.	.	32c/JJJ	.	32gg\K	.	.	.	.	.	.	.	.	.	.
.	.	.	.	.	.	.	.	16c/LL	.	16.ee\	.	.	.	.	.	.	.	.	.	.
.	.	.	.	.	.	.	.	32c/L	.	.	.	.	.	.	.	.	.	.	.	.
.	.	.	.	.	.	.	.	32c/JJJ	.	32cc\K	.	.	.	.	.	.	.	.	.	.
.	.	.	.	.	.	.	.	16c/LL	.	16.b-\	.	.	.	.	.	.	.	.	.	.
.	.	.	.	.	.	.	.	16c/JJ	.	.	.	.	.	.	.	.	.	.	.	.
.	.	.	.	.	.	.	.	.	.	32g\JJk	.	.	.	.	.	.	.	.	.	.
=65	=65	=65	=65	=65	=65	=65	=65	=65	=65	=65	=65	=65	=65	=65	=65	=65	=65	=65	=65	=65
8F\	.	8A 8F/	.	8fyy 8A/yy	.	8f 8A/	.	8f/	.	8f/	.	8F\	.	.	8A/	.	.	8f\	-my	.
8r	.	8r	.	8ryy	.	8r	.	8r	.	8r	.	8r	.	.	8r	.	.	8r	.	.
16.BB-/LL	.	16.F/LL	.	16.d/LLyy	.	16.d/LL	.	16.f/LL	.	16.dd\LL	.	16.BB-/	.	.	16.F/	.	.	16.d\	Nie-	.
32BB-/JJk	.	32E/JJk	.	32c#X/JJkyy	.	32c#X/JJk	.	32e/JJk	.	32cc#X\JJk	.	32BB-/	.	.	32E/	.	.	32c#X\	-chaj	.
!!LO:LB:g=original
=66	=66	=66	=66	=66	=66	=66	=66	=66	=66	=66	=66	=66	=66	=66	=66	=66	=66	=66	=66	=66
!	!	!	!	!LO:TX:a:t=P:problem=w źródle unison kontunuowany i oznaczony jako //	!	!	!	!	!	!	!	!	!	!	!	!	!	!	!	!
8BB-/L	.	8F/L	.	8d/Lyy	.	8d/L	.	8f/L	.	8dd\L	.	8BB-/	.	.	8F/	.	.	8d\	ży-	.
8BB-/J	.	8D/J	.	8B-/Jyy	.	8B-/J	.	8d/J	.	8b-\J	.	8BB-/	.	.	8D/	.	.	8B-\	-ie	.
.	.	(<8qG/	.	(yy<8qe/yy	.	(<8qe/	.	(<8qg/	.	(<8qee/	.	.	.	.	(<8qG/	.	.	8qe/	.	.
16.BB-/LL	.	16.F/LL)	.	16.d/LL)yy	.	16.d/LL)	.	16.f/LL)	.	16.dd\)	.	16.BB-/	.	.	16.F/)	.	.	16.d\	zło-	.
32BB-/JJk	.	32E|</JJk	.	32c#X/JJkyy	.	32c#X/JJk	.	32e/JJk	.	32cc#X\	.	32BB-/	.	.	32E/	.	.	32c#X\	-ta	.
=67	=67	=67	=67	=67	=67	=67	=67	=67	=67	=67	=67	=67	=67	=67	=67	=67	=67	=67	=67	=67
8BB-/L	.	8F/L	.	8d/Lyy	.	8d/L	.	8f/L	.	8dd\L	.	8BB-/	.	.	8F/	.	.	8d\	pa-	.
8BB-/J	.	8D/J	.	8B-/Jyy	.	8B-/J	.	8d/J	.	8b-\J	.	8BB-/	.	.	8D/	.	.	8B-\	-ra	.
16.BB-/LL	.	16.B-/LL	.	16.d/LLyy	.	16.d/LL	.	16.b-\LL	.	16.dd\LL	.	16.BB-/	.	.	16.B-\	.	.	16.d\	wy-	.
32GG/JJk	.	32B-/JJk	.	32g/JJkyy	.	32g/JJk	.	32b-\JJk	.	32gg\JJk	.	32GG/	.	.	32B-\	.	.	32g\	-krzy-	.
=68	=68	=68	=68	=68	=68	=68	=68	=68	=68	=68	=68	=68	=68	=68	=68	=68	=68	=68	=68	=68
!	!LO:DY:b:rj	!	!LO:DY:b:rj	!	!LO:DY:b:Bi:t=%so:rj	!	!LO:DY:b:Bi:t=%so:rj	!	!LO:DY:a:rj	!	!	!	!	!	!	!	!	!	!	!
16C\LL	ff	16c\LL	ff	16e/LLyy	ffyy	16e/LL	ff	16g/LL	ff	16ee\LL	.	4.C/	.	.	4.G/	.	.	4.e\	-knie-	.
32C\L	.	32gL 32c\	.	32ccLyy 32e/yy	.	32ccL 32e/	.	32cc/L	.	32ccc\L	.	.	.	.	.	.	.	.	.	.
32C\JJJ	.	32gJJJ 32c\	.	32ccJJJyy 32e/yy	.	32ccJJJ 32e/	.	32cc/JJJ	.	32ccc\JJJ	.	.	.	.	.	.	.	.	.	.
*tremolo	*	*tremolo	*	*tremolo	*	*tremolo	*	*tremolo	*	*tremolo	*	*	*	*	*	*	*	*	*	*
16C\LL	.	16gLL 16c\	.	16ccLLyy 16e/yy	.	16ccLL 16e/	.	16cc\LL	.	16ccc\LL	.	.	.	.	.	.	.	.	.	.
16C\	.	16g 16c\	.	16ccyy 16e/yy	.	16cc 16e/	.	16cc\	.	16ccc\	.	.	.	.	.	.	.	.	.	.
16C\	.	16g 16c\	.	16ccyy 16e/yy	.	16cc 16e/	.	16cc\	.	16ccc\	.	.	.	.	.	.	.	.	.	.
16C\JJ	.	16gJJ 16c\	.	16ccJJyy 16e/yy	.	16ccJJ 16e/	.	16cc\JJ	.	16ccc\JJ	.	.	.	.	.	.	.	.	.	.
*Xtremolo	*	*Xtremolo	*	*Xtremolo	*	*Xtremolo	*	*Xtremolo	*	*Xtremolo	*	*	*	*	*	*	*	*	*	*
=69	=69	=69	=69	=69	=69	=69	=69	=69	=69	=69	=69	=69	=69	=69	=69	=69	=69	=69	=69	=69
!LO:TX:t=P:problem=mixed beam	!	!	!	!	!	!	!	!	!	!	!	!	!	!	!	!	!	!	!	!
8F/L	.	8f\	.	8f/yy	.	8f/	.	8f/L	.	8ff\L	.	8F\	.	.	8A/	.	.	8f\	-my	.
!	!	!	!	!	!	!	!	!	!	!	!	!	!	!	!	!	!	!LO:TX:a:Bi:t=Solo	!	!
8FF/J	.	8f 8A\	.	8ffyy 8a^<\yy	.	8ff 8a^<\	.	8f/J	.	8ff^<\J	.	8r	.	.	8r	.	.	8r	.	.
8r	.	8r	.	8ryyy	.	8r	.	8r	.	8r	.	8r	.	.	8A/	la	.	8c\	la	.
=70	=70	=70	=70	=70	=70	=70	=70	=70	=70	=70	=70	=70	=70	=70	=70	=70	=70	=70	=70	=70
*	*	*	*	*	*	*	*	*	*	*	*	*	*	*	*Xtuplet	*	*	*	*	*
!	!	!	!	!	!	!	!	!	!	!	!	!	!	!	!	!	!	!LO:TUP:a	!	!
!	!LO:DY:b:rj	!	!	!	!	!	!LO:DY:b	!	!	!	!	!	!	!	!	!	!LO:DY:b:rj	!	!	!
8C/	p	8r	.	8r	.	8r	p	4.r	.	4.r	.	8C/	la	.	24A/LL	la	p	(>24c\LL	la	.
.	.	.	.	.	.	.	.	.	.	.	.	.	.	.	24F#X/	.	.	24A\	.	.
.	.	.	.	.	.	.	.	.	.	.	.	.	.	.	24G/JJ	.	.	24B-\JJ)	.	.
8r	.	8c\L	.	8B-/L	.	8eL 8G/	.	.	.	.	.	(<16BBn/LL	la	.	8.B-/	la	.	8.g|>\L	la	.
.	.	.	.	.	.	.	.	.	.	.	.	16C/JJ	.	.	.	.	.	.	.	.
8r	.	8c\J	.	8B-/J	.	8eJ 8G/	.	.	.	.	.	8C\)	.	.	.	.	.	.	.	.
.	.	.	.	.	.	.	.	.	.	.	.	.	.	.	16G/	la	.	16B-|>\Jk	la	.
*	*	*	*	*	*	*	*	*	*	*	*	*	*	*	*tuplet	*	*	*	*	*
!!LO:PB:g=original
=71	=71	=71	=71	=71	=71	=71	=71	=71	=71	=71	=71	=71	=71	=71	=71	=71	=71	=71	=71	=71
!	!	!	!	!	!	!	!	!	!	!	!	!	!	!	!LO:TUP:b	!	!	!LO:TUP:a	!	!
8C/	.	8r	.	8r	.	8r	.	4.r	.	4.r	.	8C/	.	.	(<24G/LL	.	.	(>24B-\LL	la	.
.	.	.	.	.	.	.	.	.	.	.	.	.	.	.	24E/	.	.	24G#X\	.	.
.	.	.	.	.	.	.	.	.	.	.	.	.	.	.	24F/JJ)	.	.	24A\JJ)	.	.
.	.	.	.	.	.	.	.	.	.	.	.	(<8qBBn/	.	.	.	.	.	.	.	.
8r	.	8cL 8F\	.	8A/L	.	8f/L	.	.	.	.	.	4C/)	.	.	8.A/	.	.	8.f\L	la	.
8r	.	8cJ 8F\	.	8A/J	.	8f/J	.	.	.	.	.	.	.	.	.	.	.	.	.	.
.	.	.	.	.	.	.	.	.	.	.	.	.	.	.	16F/	.	.	16A\Jk	la	.
=72	=72	=72	=72	=72	=72	=72	=72	=72	=72	=72	=72	=72	=72	=72	=72	=72	=72	=72	=72	=72
!	!	!	!	!	!	!	!	!	!	!	!LO:DY:b:rj	!	!	!	!	!	!	!	!	!
8C/	.	8G/	.	8c/	.	8e/	.	16.d/LL	.	16.g/LL	p	8C/	.	.	16.D/	.	.	16.G/	la	.
.	.	.	.	.	.	.	.	32b-/JJk	.	32dd/JJk	.	.	.	.	32B-\	.	.	32d\	la	.
.	.	.	.	.	.	.	.	.	.	.	.	8qBBn/	.	.	.	.	.	.	.	.
8r	.	8r	.	8r	.	8r	.	8a/L	.	8cc/L	.	4C/	.	.	8A\	.	.	8c\	la	.
8C/	.	8G/	.	8c/	.	8e/	.	8g/J	.	8b-/J	.	.	.	.	8G/	.	.	8B-\	la	.
=73	=73	=73	=73	=73	=73	=73	=73	=73	=73	=73	=73	=73	=73	=73	=73	=73	=73	=73	=73	=73
16C/	.	16A 16F/	.	16c/	.	16f/	.	16.f/LL	.	16.a/LL	.	8C/	.	.	16.F/	.	.	16.A\	.	.
16r	.	16r	.	16r	.	16r	.	.	.	.	.	.	.	.	.	.	.	.	.	.
.	.	.	.	.	.	.	.	32g/JJk	.	32b-/JJk	.	.	.	.	32G/	.	.	32B-\	.	.
.	.	.	.	.	.	.	.	.	.	.	.	(<8qD/	.	.	.	.	.	.	.	.
4C/	.	4A 4F/	.	4c/	.	4f/	.	4a/	.	4cc/	.	4C/)	.	.	4A/	.	.	4c\	.	.
=74	=74	=74	=74	=74	=74	=74	=74	=74	=74	=74	=74	=74	=74	=74	=74	=74	=74	=74	=74	=74
!	!	!	!	!	!	!	!	!	!	!	!	!	!	!	!LO:TUP:b	!	!	!LO:TUP:a	!	!
!	!LO:DY:b:rj	!	!	!	!	!	!	!	!	!	!	!	!	!	!	!	!	!	!	!LO:DY:b:rj
8C/	pp	8r	.	8r	.	8r	.	4.r	.	4.r	.	8C/	.	.	(<24A/LL	.	.	(>24c\LL	la	pp
.	.	.	.	.	.	.	.	.	.	.	.	.	.	.	24F#X/	.	.	24A\	.	.
.	.	.	.	.	.	.	.	.	.	.	.	.	.	.	24G/JJ)	.	.	24B-\JJ)	.	.
.	.	.	.	.	.	.	.	.	.	.	.	(<8qBBn/	.	.	.	.	.	.	.	.
!	!	!	!	!	!	!	!LO:DY:b:rj	!	!	!	!	!	!	!	!	!	!	!	!	!
8r	.	8G/L	.	8B-/L	.	8e/L	pp	.	.	.	.	4C/)	.	.	8.B-/	.	.	8.g\	.	.
8r	.	8G/J	.	8B-/J	.	8e/J	.	.	.	.	.	.	.	.	.	.	.	.	.	.
.	.	.	.	.	.	.	.	.	.	.	.	.	.	.	16G/	.	.	16B-\	.	.
=75	=75	=75	=75	=75	=75	=75	=75	=75	=75	=75	=75	=75	=75	=75	=75	=75	=75	=75	=75	=75
!	!	!	!	!	!	!	!	!	!	!	!	!	!	!	!LO:TUP:b	!	!	!LO:TUP:b	!	!
8C/	.	8r	.	8r	.	8r	.	4.r	.	4.r	.	8C/	.	.	(<24G/LL	.	.	(<24B-/LL	la	.
.	.	.	.	.	.	.	.	.	.	.	.	.	.	.	24E/	.	.	24G#X/	.	.
.	.	.	.	.	.	.	.	.	.	.	.	.	.	.	24F/JJ)	.	.	24A/JJ)	.	.
.	.	.	.	.	.	.	.	.	.	.	.	(<8qBBn/	.	.	.	.	.	.	.	.
8r	.	8F/L	.	8A/L	.	8f/L	.	.	.	.	.	4C/)	.	.	8.A/	.	.	8.f\	.	.
8r	.	8F/J	.	8A/J	.	8f/J	.	.	.	.	.	.	.	.	.	.	.	.	.	.
.	.	.	.	.	.	.	.	.	.	.	.	.	.	.	16F/	.	.	16A\	.	.
!!LO:LB:g=original
=76	=76	=76	=76	=76	=76	=76	=76	=76	=76	=76	=76	=76	=76	=76	=76	=76	=76	=76	=76	=76
!	!	!	!	!LO:TX:t=P:problem=w źródle znak // jako pauza 8r	!	!	!	!	!	!	!	!	!	!	!	!	!	!	!	!
!	!	!	!	!	!	!	!	!	!	!	!	!	!	!	!	!	!	!	!	!LO:HP:a
8C/	.	8r	.	8ryy	.	8r	.	16.e/LL	.	16.g/LL	.	8C/	la	.	16.E/	.	.	16.G\	la	<
.	.	.	.	.	.	.	.	32f/JJk	.	32a/JJk	.	.	.	.	32F/	.	.	32A\	.	.
!	!	!	!	!	!	!	!	!	!LO:HP:b	!	!LO:HP:a	!	!	!	!	!	!	!	!	!
8r	.	8G/L	.	8c/L	.	8eL 8B-'</	.	16.g/LL	<	16.b-\LL	<	8C/	.	.	16.G/	.	.	16.B-\	.	.
.	.	.	.	.	.	.	.	32a/JJk	.	32cc\JJk	.	.	.	.	32A/	.	.	32c\	.	.
8r	.	8G/J	.	8c/J	.	8eJ 8B-/	.	16.b-/LL	.	16.dd\LL	.	8C/	.	.	16.B-/	.	.	16.d\	.	.
.	.	.	.	.	.	.	.	32g/JJk	[[	32ee\JJk	[[	.	.	.	32G/	.	.	32e\	.	[
=77	=77	=77	=77	=77	=77	=77	=77	=77	=77	=77	=77	=77	=77	=77	=77	=77	=77	=77	=77	=77
!LO:TX:t=P:problem=mixed beam	!	!	!	!	!	!	!	!	!	!	!	!	!	!	!	!	!	!	!	!
!	!LO:DY:b:rj	!	!	!	!	!	!	!	!LO:DY:a	!	!LO:DY:a	!	!	!	!	!	!	!	!	!LO:DY:a:rj
8F\L	f	8F/	.	8c/	.	8f 8A/	.	8a/	f	8ff\	f	8F\	la	.	8A/	.	.	8f\	la	f
8FF^</J	.	8f 8A^>\	.	8ff 8a\	.	8ff 8a\	.	8a/	.	8ff^<\	.	8F\	la	.	8F/	.	.	8F/	la	.
8r;>	.	8r;>	.	8r;>	.	8r;>	.	8r;>	.	8r;>	.	8r;>	.	.	8r;>	.	.	8r;>	.	.
=78||	=78||	=78||	=78||	=78||	=78||	=78||	=78||	=78||	=78||	=78||	=78||	=78||	=78||	=78||	=78||	=78||	=78||	=78||	=78||	=78||
!!!OMD: moderato
*k[]	*	*k[]	*	*k[]	*	*k[]	*	*k[]	*	*k[]	*	*k[]	*	*	*k[]	*	*	*k[]	*	*
*M2/4	*	*M2/4	*	*M2/4	*	*M2/4	*	*M2/4	*	*M2/4	*	*M2/4	*	*	*M2/4	*	*	*M2/4	*	*
!	!	!	!	!	!	!	!	!	!	!	!	!	!	!	!	!	!	!LO:TX:a:t=P:problem=W źródle nieoznaczone zmiany w znakach przykluczowych&colon; dotyczy wszystkich głosów	!	!
!	!LO:DY:b:rj	!	!	!	!LO:DY:b:rj	!	!LO:DY:a:rj	!	!	!	!	!	!	!	!	!	!	!	!	!
(>8G\	p	(<8G/	.	(<8G/	p	(<8G/	p	8ryy	.	8ryy	.	8G\	.	.	8G/	.	.	8G/	Więc	.
=79	=79	=79	=79	=79	=79	=79	=79	=79	=79	=79	=79	=79	=79	=79	=79	=79	=79	=79	=79	=79
8C/)	.	8E/L)	.	8c/L)	.	8c/L)	.	2ryy	.	2ryy	.	8C/	.	.	8E/	.	.	8c\	pii-	.
8r	.	8E/J	.	8c'</J	.	8c/J	.	.	.	.	.	8C/	.	.	8E/	.	.	8c\	-my	.
8BB/	.	8r	.	8r	.	8r	.	.	.	.	.	8BB/	.	.	8G/	.	.	8d\	na-	.
8r	.	8A/	.	8d/	.	8d/	.	.	.	.	.	8BB/	.	.	8G/	.	.	8d\	-przód	.
!!LO:PB:g=original
=80	=80	=80	=80	=80	=80	=80	=80	=80	=80	=80	=80	=80	=80	=80	=80	=80	=80	=80	=80	=80
8C'>\L	.	8G'</L	.	8c'</L	.	8e'>/L	.	2r	.	2r	.	8C/	.	.	8G/	.	.	8e\	zdro-	.
8E'>\	.	8G'</	.	8c'</	.	8c'>/	.	.	.	.	.	8E\	.	.	8G/	.	.	8c\	-wie	.
(>8D\	.	[<8G/	.	(<8B/	.	(>8f/	.	.	.	.	.	8D\	.	.	8B\	.	.	8f\	Pa-	.
8C\J)	.	8G/J]	.	8c/J)	.	8e/J	.	.	.	.	.	8C\	.	.	8c\	.	.	8e\	-na	.
=81	=81	=81	=81	=81	=81	=81	=81	=81	=81	=81	=81	=81	=81	=81	=81	=81	=81	=81	=81	=81
!	!	!	!	!	!	!	!	!	!LO:DY:a	!	!	!	!	!	!	!	!	!	!	!
(<2GG/	.	[<2G/	.	2B/	.	(>2d/)	.	8r	p	2r	.	2G\	.	.	2B\	.	.	2d^>\	Ja-	.
.	.	.	.	.	.	.	.	16g/LL	.	.	.	.	.	.	.	.	.	.	.	.
.	.	.	.	.	.	.	.	16g/JJ	.	.	.	.	.	.	.	.	.	.	.	.
.	.	.	.	.	.	.	.	8g/L	.	.	.	.	.	.	.	.	.	.	.	.
.	.	.	.	.	.	.	.	16g/L	.	.	.	.	.	.	.	.	.	.	.	.
.	.	.	.	.	.	.	.	16g/JJ	.	.	.	.	.	.	.	.	.	.	.	.
=82	=82	=82	=82	=82	=82	=82	=82	=82	=82	=82	=82	=82	=82	=82	=82	=82	=82	=82	=82	=82
4C/)	.	4G/]	.	4c/	.	4e'</)	.	4cc/	.	4r	.	4C/	.	.	4c\	.	.	4e\	-na	.
8r	.	8r	.	8r	.	8r	.	8r	.	8r	.	8r	.	.	8r	.	.	8r	.	.
!	!	!	!	!	!	!	!	!	!	!	!	!	!	!	!	!	!	!LO:TX:a:Bi:t=Choro	!	!
!	!	!	!LO:DY:b:rj	!	!	!	!LO:DY:b:rj	!	!	!	!	!	!	!	!	!	!	!	!	!LO:DY:b:rj
(>8G\	.	(<8G/	f	8G/	.	8G/	f	[<8g/	.	8g/	.	8G\	.	.	8G/	.	.	8G/	Więc	f
=83	=83	=83	=83	=83	=83	=83	=83	=83	=83	=83	=83	=83	=83	=83	=83	=83	=83	=83	=83	=83
*tremolo	*	*	*	*tremolo	*	*tremolo	*	*	*	*	*	*	*	*	*	*	*	*	*	*
8C/L)	.	8E/L)	.	8c/L	.	8c/L	.	8g/L]	.	16cc/LL	.	8C/	.	.	8E/	.	.	8c\	pii-	.
.	.	.	.	.	.	.	.	.	.	16g/	.	.	.	.	.	.	.	.	.	.
8C/J	.	8E/J	.	8c/J	.	8c/J	.	16g/L	.	16e/	.	8C/	.	.	8E/	.	.	8c\	-my	.
.	.	.	.	.	.	.	.	16g/JJ	.	16cc/JJ	.	.	.	.	.	.	.	.	.	.
8BB/L	.	8G/L	.	8d/L	.	8d/L	.	8g/L	.	16dd/LL	.	8BB/	.	.	8G/	na-	.	8d\	[[zdro-	.
.	.	.	.	.	.	.	.	.	.	16b/	.	.	.	.	.	.	.	.	.	.
8BB/J	.	8G/J	.	8d/J	.	8d/J	.	16g/L	.	16g/	.	8BB/	.	.	8G/	-przód	.	8d\	-wie	.
.	.	.	.	.	.	.	.	16g/JJ	.	16dd/JJ	.	.	.	.	.	.	.	.	.	.
*Xtremolo	*	*	*	*Xtremolo	*	*Xtremolo	*	*	*	*	*	*	*	*	*	*	*	*	*	*
=84	=84	=84	=84	=84	=84	=84	=84	=84	=84	=84	=84	=84	=84	=84	=84	=84	=84	=84	=84	=84
*	*	*	*	*	*	*	*	*rep	*	*	*	*	*	*	*	*	*	*	*	*
8C'>\L	.	8G/L	.	8c'</L	.	8e'>/L	.	8g/L	.	16ee\LL	.	8C\	.	.	8G/	zdro-	.	8e\	Pa-	.
.	.	.	.	.	.	.	.	.	.	16cc\	.	.	.	.	.	.	.	.	.	.
8E'>\	.	8G/J	.	8c'</	.	8c'>/	.	16g/L	.	16g\	.	8E\	.	.	8G/	-wie	.	8c\	-na]]	.
.	.	.	.	.	.	.	.	16g/JJ	.	16cc\JJ	.	.	.	.	.	.	.	.	.	.
(>8D\	.	4G/	.	(<8B/	.	(>8f/	.	8g/L	.	16ff\LL	.	8D\	.	.	8B\	Pa-	.	8f\	.	.
.	.	.	.	.	.	.	.	.	.	16b\	.	.	.	.	.	.	.	.	.	.
8C\J)	.	.	.	8c/J)	.	8e/J)	.	16g/L	.	16ee\	.	8C\	.	.	8c\	-na	.	8e\	.	.
.	.	.	.	.	.	.	.	16g/JJ	.	16cc\JJ	.	.	.	.	.	.	.	.	.	.
*	*	*	*	*	*	*	*	*Xrep	*	*	*	*	*	*	*	*	*	*	*	*
=85	=85	=85	=85	=85	=85	=85	=85	=85	=85	=85	=85	=85	=85	=85	=85	=85	=85	=85	=85	=85
*	*	*	*	*	*	*	*	*rep	*	*	*	*	*	*	*	*	*	*	*	*
(2<GG/	.	2G^</	.	2B^</	.	2d^</	.	8g/L	.	2dd\	.	2G 2GG/	.	.	2B\	Ja	.	2d\	.	.
.	.	.	.	.	.	.	.	16g/L	.	.	.	.	.	.	.	.	.	.	.	.
.	.	.	.	.	.	.	.	16g/JJ	.	.	.	.	.	.	.	.	.	.	.	.
.	.	.	.	.	.	.	.	8g/L	.	.	.	.	.	.	.	.	.	.	.	.
.	.	.	.	.	.	.	.	16g/L	.	.	.	.	.	.	.	.	.	.	.	.
.	.	.	.	.	.	.	.	16g/JJ	.	.	.	.	.	.	.	.	.	.	.	.
*	*	*	*	*	*	*	*	*Xrep	*	*	*	*	*	*	*	*	*	*	*	*
!!LO:LB:g=original
=86	=86	=86	=86	=86	=86	=86	=86	=86	=86	=86	=86	=86	=86	=86	=86	=86	=86	=86	=86	=86
!	!	!	!	!LO:TX:t=P:problem:problem=w źródle 3 takty ukryte [nieoznaczona powtórka]	!	!LO:TX:t=P:problem:problem=w źródle 3 takty ukryte [nieoznaczona powtórka]	!	!	!	!	!	!	!	!	!	!	!	!	!	!
!LO:TX:t=P:problem:problem=w źródle 3 takty ukryte [nieoznaczona powtórka]	!	!LO:TX:t=P:problem:problem=w źródle 3 takty ukryte [nieoznaczona powtórka]	!	!	!	!	!	!	!	!	!	!	!	!	!	!	!	!	!	!
!	!	!	!	!	!	!	!	!LO:TX:t=P:problem:problem=w źródle 3 takty ukryte [nieoznaczona powtórka]	!	!LO:TX:t=P:problem:problem=w źródle 3 takty ukryte [nieoznaczona powtórka]	!	!	!	!	!	!	!	!	!	!
4C/)yy	.	4G/yy	.	4c/yy	.	4e'</yy	.	4cc/yy	.	4ryy	.	4C/	.	.	4c\	.	.	4e\	na	.
8ryy	.	8ryy	.	8ryy	.	8ryy	.	8ryy	.	8ryy	.	8r	.	.	8r	.	.	8r	.	.
!	!	!	!LO:DY:b:rj	!	!	!	!LO:DY:b:rj	!	!	!	!	!	!	!	!	!	!	!LO:TX:a:Bi:t=Solo:rj	!	!
(y>8G\yy	.	(y<8G/yy	fyy	8G/yy	.	8G/yy	fyy	[y<8g/yy	.	8g/yy	.	8G\	.	.	8G/	.	.	8G/	Na-	.
=87	=87	=87	=87	=87	=87	=87	=87	=87	=87	=87	=87	=87	=87	=87	=87	=87	=87	=87	=87	=87
*tremolo	*	*	*	*tremolo	*	*tremolo	*	*	*	*	*	*	*	*	*	*	*	*	*	*
8C/L)yy	.	8E/L)yy	.	8c/Lyy	.	8c/Lyy	.	8g/L]yy	.	16cc/LLyy	.	8C/	.	.	8G/	.	.	8c\	-lej-	.
.	.	.	.	.	.	.	.	.	.	16g/yy	.	.	.	.	.	.	.	.	.	.
8C/Jyy	.	8E/Jyy	.	8c/Jyy	.	8c/Jyy	.	16g/Lyy	.	16e/yy	.	8C/	.	.	8G/	.	.	8c\	-my	.
.	.	.	.	.	.	.	.	16g/JJyy	.	16cc/JJyy	.	.	.	.	.	.	.	.	.	.
8BB/Lyy	.	8G/Lyy	.	8d/Lyy	.	8d/Lyy	.	8g/Lyy	.	16dd/LLyy	.	8BB/	.	.	8G/	.	.	8d\	Kie-	.
.	.	.	.	.	.	.	.	.	.	16b/yy	.	.	.	.	.	.	.	.	.	.
8BB/Jyy	.	8G/Jyy	.	8d/Jyy	.	8d/Jyy	.	16g/Lyy	.	16g/yy	.	8BB/	.	.	8G/	.	.	8d\	-lich	.
.	.	.	.	.	.	.	.	16g/JJyy	.	16dd/JJyy	.	.	.	.	.	.	.	.	.	.
*Xtremolo	*	*	*	*Xtremolo	*	*Xtremolo	*	*	*	*	*	*	*	*	*	*	*	*	*	*
=88	=88	=88	=88	=88	=88	=88	=88	=88	=88	=88	=88	=88	=88	=88	=88	=88	=88	=88	=88	=88
*	*	*	*	*	*	*	*	*rep	*	*	*	*	*	*	*	*	*	*	*	*
8C'>\Lyy	.	8G/Lyy	.	8c'</Lyy	.	8e'>/Lyy	.	8g/Lyy	.	16ee\LLyy	.	8C\	.	.	8G/	.	.	8e\	Kie-	.
.	.	.	.	.	.	.	.	.	.	16cc\yy	.	.	.	.	.	.	.	.	.	.
8E'>\yy	.	8G/Jyy	.	8c'</yy	.	8c'>/yy	.	16g/Lyy	.	16g\yy	.	8E\	.	.	8G/	.	.	8c\	-lich	.
.	.	.	.	.	.	.	.	16g/JJyy	.	16cc\JJyy	.	.	.	.	.	.	.	.	.	.
(y>8D\yy	.	4G/yy	.	(y<8B/yy	.	(y>8f/yy	.	8g/Lyy	.	16ff\LLyy	.	8D\	.	.	8B\	.	.	8f\	pe-	.
.	.	.	.	.	.	.	.	.	.	16b\yy	.	.	.	.	.	.	.	.	.	.
8C\J)yy	.	.	.	8c/J)yy	.	8e/J)yy	.	16g/Lyy	.	16ee\yy	.	8C\	.	.	8c\	.	.	8e\	-łen	.
.	.	.	.	.	.	.	.	16g/JJyy	.	16cc\JJyy	.	.	.	.	.	.	.	.	.	.
*	*	*	*	*	*	*	*	*Xrep	*	*	*	*	*	*	*	*	*	*	*	*
=89	=89	=89	=89	=89	=89	=89	=89	=89	=89	=89	=89	=89	=89	=89	=89	=89	=89	=89	=89	=89
8D\	.	8r	.	8r	.	8r	.	8r	.	2r	.	4D\	.	.	4B\	.	.	4d\	szam-	.
8r	.	8G/	.	8B/	.	8d/	.	16d/LL	.	.	.	.	.	.	.	.	.	.	.	.
.	.	.	.	.	.	.	.	16d/JJ	.	.	.	.	.	.	.	.	.	.	.	.
8D\	.	8r	.	8r	.	8r	.	8d/L	.	.	.	4D\	.	.	4c\	.	.	4f#X\	-pa-	.
8r	.	8A/	.	8c/	.	8f#X/	.	16d/L	.	.	.	.	.	.	.	.	.	.	.	.
.	.	.	.	.	.	.	.	16d/JJ	.	.	.	.	.	.	.	.	.	.	.	.
=90	=90	=90	=90	=90	=90	=90	=90	=90	=90	=90	=90	=90	=90	=90	=90	=90	=90	=90	=90	=90
4GG/	.	4G/	.	4B/	.	4g/	.	8g/L	.	2r	.	4G\	.	.	4B\	.	.	4g\	-na	.
.	.	.	.	.	.	.	.	16g/L	.	.	.	.	.	.	.	.	.	.	.	.
.	.	.	.	.	.	.	.	16g/JJ	.	.	.	.	.	.	.	.	.	.	.	.
*	*	*	*	*	*	*	*	*rep	*	*	*	*	*	*	*	*	*	*	*	*
8r	.	8r	.	8r	.	8r	.	8g/L	.	.	.	8r	.	.	8r	.	.	8r	.	.
!	!LO:DY:b:rj	!	!	!	!	!	!LO:DY:b:rj	!	!	!	!	!	!	!	!	!	!	!LO:TX:a:Bi:t=Choro:rj	!	!
8G\	f	8G/	.	8G/	.	8G/	f	16g/L	.	.	.	8G\	.	.	8A/	.	.	8G/	Na	.
.	.	.	.	.	.	.	.	16g/JJ	.	.	.	.	.	.	.	.	.	.	.	.
*	*	*	*	*	*	*	*	*Xrep	*	*	*	*	*	*	*	*	*	*	*	*
!!LO:PB:g=original
=91	=91	=91	=91	=91	=91	=91	=91	=91	=91	=91	=91	=91	=91	=91	=91	=91	=91	=91	=91	=91
*tremolo	*	*	*	*tremolo	*	*tremolo	*	*	*	*	*	*	*	*	*	*	*	*	*	*
!LO:TX:t=P:problem:problem=w źródle 2 takty ukryte [nieoznaczona powtórka]	!	!LO:TX:t=P:problem:problem=w źródle 2 takty ukryte [nieoznaczona powtórka]	!	!	!	!	!	!	!	!	!	!	!	!	!	!	!	!	!	!
!	!	!	!	!LO:TX:t=P:problem:problem=w źródle 2 takty ukryte [nieoznaczona powtórka]	!	!LO:TX:t=P:problem:problem=w źródle 2 takty ukryte [nieoznaczona powtórka]	!	!	!	!	!	!	!	!	!	!	!	!	!	!
8C/Lyy	.	8E/Lyy	.	8c/Lyy	.	8c/Lyy	.	8g/L	.	16cc/LL	.	8C/	.	.	8G/	.	.	8c\	lej-	.
.	.	.	.	.	.	.	.	.	.	16g/	.	.	.	.	.	.	.	.	.	.
8C/Jyy	.	8E/Jyy	.	8c/Jyy	.	8c/Jyy	.	16g/L	.	16e/	.	8C/	.	.	8G/	.	.	8c\	-my	.
.	.	.	.	.	.	.	.	16g/JJ	.	16g/JJ	.	.	.	.	.	.	.	.	.	.
*	*	*	*	*	*	*	*	*rep	*	*	*	*	*	*	*	*	*	*	*	*
8BB/Lyy	.	8G/Lyy	.	8d/Lyy	.	8d/Lyy	.	8g/L	.	16dd/LL	.	8BB/	.	.	8G/	.	.	8d\	Kie-	.
.	.	.	.	.	.	.	.	.	.	16b/	.	.	.	.	.	.	.	.	.	.
8BB/Jyy	.	8G/Jyy	.	8d/Jyy	.	8d/Jyy	.	16g/L	.	16g/	.	8BB/	.	.	8G/	.	.	8d\	-lich	.
.	.	.	.	.	.	.	.	16g/JJ	.	16dd/JJ	.	.	.	.	.	.	.	.	.	.
*	*	*	*	*	*	*	*	*Xrep	*	*	*	*	*	*	*	*	*	*	*	*
*Xtremolo	*	*	*	*Xtremolo	*	*Xtremolo	*	*	*	*	*	*	*	*	*	*	*	*	*	*
=92	=92	=92	=92	=92	=92	=92	=92	=92	=92	=92	=92	=92	=92	=92	=92	=92	=92	=92	=92	=92
*	*	*	*	*	*	*	*	*rep	*	*	*	*	*	*	*	*	*	*	*	*
8C'>\Lyy	.	8G/Lyy	.	8c'</Lyy	.	8e'>/Lyy	.	8g/L	.	16ee\LL	.	8C\	.	.	8G/	.	.	8e\	Kie-	.
.	.	.	.	.	.	.	.	.	.	16cc\	.	.	.	.	.	.	.	.	.	.
8E'>\yy	.	8G/Jyy	.	8c'</yy	.	8c'>/yy	.	16g/L	.	16g\	.	8E\	.	.	8G/	.	.	8c\	-lich	.
.	.	.	.	.	.	.	.	16g/JJ	.	16cc\JJ	.	.	.	.	.	.	.	.	.	.
(y>8D\yy	.	4G/yy	.	(y<8B/yy	.	(y>8f/yy	.	8g/L	.	16ff\LL	.	8D\	.	.	8B\	.	.	8f\	pe-	.
.	.	.	.	.	.	.	.	.	.	16b\	.	.	.	.	.	.	.	.	.	.
8C\J)yy	.	.	.	8c/J)yy	.	8e/J)yy	.	16g/L	.	16ee\	.	8C\	.	.	8c\	.	.	8e\	-łen	.
.	.	.	.	.	.	.	.	16g/JJ	.	16cc\JJ	.	.	.	.	.	.	.	.	.	.
*	*	*	*	*	*	*	*	*Xrep	*	*	*	*	*	*	*	*	*	*	*	*
=93	=93	=93	=93	=93	=93	=93	=93	=93	=93	=93	=93	=93	=93	=93	=93	=93	=93	=93	=93	=93
4D	.	4G/	.	4B/	.	4d/	.	8d/L	.	16dd\LL	.	4D\	.	.	4B\	.	.	4d\	szam-	.
.	.	.	.	.	.	.	.	.	.	16gg\	.	.	.	.	.	.	.	.	.	.
.	.	.	.	.	.	.	.	16d/L	.	16bb\	.	.	.	.	.	.	.	.	.	.
.	.	.	.	.	.	.	.	16d/JJ	.	16gg\JJ	.	.	.	.	.	.	.	.	.	.
*	*	*	*	*	*	*	*	*rep	*	*	*	*	*	*	*	*	*	*	*	*
4D	.	4A 4D/	.	4c/	.	4f#X 4A/	.	8d/L	.	16ff#X\LL	.	4D\	.	.	4c\	.	.	4f#X\	-pa-	.
.	.	.	.	.	.	.	.	.	.	16dd\	.	.	.	.	.	.	.	.	.	.
.	.	.	.	.	.	.	.	16d/L	.	16cc\	.	.	.	.	.	.	.	.	.	.
.	.	.	.	.	.	.	.	16d/JJ	.	16a\JJ	.	.	.	.	.	.	.	.	.	.
*	*	*	*	*	*	*	*	*Xrep	*	*	*	*	*	*	*	*	*	*	*	*
=94	=94	=94	=94	=94	=94	=94	=94	=94	=94	=94	=94	=94	=94	=94	=94	=94	=94	=94	=94	=94
4GG	.	4G/	.	4B/	.	4g 4B/	.	4g/	.	4g/	.	4G\	.	.	4B\	.	.	4g\	-na	.
8r;>	.	8r;>	.	8r;>	.	8r;>	.	8r;>	.	8r;>	.	8r;>	.	.	8r;>	.	.	8r;>	.	.
=95||	=95||	=95||	=95||	=95||	=95||	=95||	=95||	=95||	=95||	=95||	=95||	=95||	=95||	=95||	=95||	=95||	=95||	=95||	=95||	=95||
*M3/8	*	*M3/8	*	*M3/8	*	*M3/8	*	*M3/8	*	*M3/8	*	*M3/8	*	*	*M3/8	*	*	*M3/8	*	*
!	!	!	!	!	!	!	!LO:DY:b:rj	!	!	!	!	!	!	!	!	!	!	!	!	!
8r	.	8r	.	16.d/LL	.	16.fn/LL	p	8r	.	8r	.	8r	.	.	16.d\	.	.	16.fn\	Łyk	.
.	.	.	.	32d/JJk	.	32f/JJk	.	.	.	.	.	.	.	.	32d\	.	.	32f\	łyk	.
!!LO:LB:g=original
=96	=96	=96	=96	=96	=96	=96	=96	=96	=96	=96	=96	=96	=96	=96	=96	=96	=96	=96	=96	=96
(>8qF#X\	.	(<8qF#X/	.	8qf/	.	(<8qf/	.	.	.	.	.	(<8qF#X/	.	.	(<8qd/	.	.	(<8qf/	.	.
4.G\)	.	4.G/)	.	4d/	.	4d/)	.	16r	.	4.r	.	4.G\)	gól	.	4B\)	.	.	4d\)	łyk	.
!	!	!	!	!	!	!	!	!	!LO:DY:b:rj	!	!	!	!	!	!	!	!	!	!	!
.	.	.	.	.	.	.	.	32g/LLL	p	.	.	.	.	.	.	.	.	.	.	.
.	.	.	.	.	.	.	.	32g/JJ	.	.	.	.	.	.	.	.	.	.	.	.
.	.	.	.	.	.	.	.	8g/J	.	.	.	.	.	.	.	.	.	.	.	.
.	.	.	.	16.d/LL	.	16.f/LL	.	8r	.	.	.	.	.	.	16.d\	.	.	16.f\	.	.
.	.	.	.	32d/JJk	.	32f/JJk	.	.	.	.	.	.	.	.	32d\	.	.	32f\	.	.
=97	=97	=97	=97	=97	=97	=97	=97	=97	=97	=97	=97	=97	=97	=97	=97	=97	=97	=97	=97	=97
*	*	*	*	*	*	*	*	*rep	*	*	*	*	*	*	*	*	*	*	*	*
(<8qF#X/	.	8qF#X/	.	8qd/	.	(<8qf/	.	.	.	.	.	(<8qF#X/	.	.	8qd/	.	.	(<8qf/	.	.
4G\)	.	4G/	.	4B/	.	4d/)	.	16r	.	4.r	.	4G\)	gól	.	4B\	.	.	4d\)	.	.
.	.	.	.	.	.	.	.	32g/LLL	.	.	.	.	.	.	.	.	.	.	.	.
.	.	.	.	.	.	.	.	32g/JJ	.	.	.	.	.	.	.	.	.	.	.	.
.	.	.	.	.	.	.	.	8g/J	.	.	.	.	.	.	.	.	.	.	.	.
!	!	!	!	!LO:TX:a:Bi:t=Unis	!	!	!	!	!	!	!	!	!	!	!	!	!	!	!	!
16.E\LL	.	16.G/LL	.	16.c/LLyy	.	16.c/LL	.	8r	.	.	.	16.E\	Kto	.	16.G/	.	.	16.c\	Nie-	.
32C\JJk	.	32G/JJk	.	32e/JJkyy	.	32e/JJk	.	.	.	.	.	32C\	wy-	.	32G/	.	.	32e\	-wy-	.
*	*	*	*	*	*	*	*	*Xrep	*	*	*	*	*	*	*	*	*	*	*	*
=98	=98	=98	=98	=98	=98	=98	=98	=98	=98	=98	=98	=98	=98	=98	=98	=98	=98	=98	=98	=98
8F\L	.	8F/L	.	8A/Lyy	.	8A/L	.	4.r	.	4.r	.	8F\	-pi-	.	8F/	.	.	8A\	-pi-	.
8D\J	.	8F/J	.	8d/Jyy	.	8d/J	.	.	.	.	.	8D\	-ie	.	8F/	.	.	8d\	-iesz	.
!LO:TX:t=P:problem=mixed beam	!	!	!	!	!	!	!	!	!	!	!	!	!	!	!	!	!	!	!	!
!	!	!	!	!LO:N:vis=8.	!	!LO:N:vis=8.	!	!	!	!	!	!	!	!	!	!	!	!	!	!
16.G\LL	.	16.G/LL	.	16.G/LLyy	.	16.G/LL	.	.	.	.	.	16.G\	to	.	16.G/	.	.	16.G/	ie-	.
!	!	!	!	!LO:N:vis=16	!	!LO:N:vis=16	!	!	!	!	!	!	!	!	!	!	!	!	!	!
32GG/JJk	.	32F/JJk	.	32B/JJkyy	.	32B/JJk	.	.	.	.	.	32GG/	mi	.	32F/	.	.	32B\	-steś	.
=99	=99	=99	=99	=99	=99	=99	=99	=99	=99	=99	=99	=99	=99	=99	=99	=99	=99	=99	=99	=99
8C/	.	8E/	.	8c/yy	.	8c/	.	4.r	.	8r	.	8C/	Król	.	8E/	.	.	8c\	bzik	.
8r	.	8r	.	8ryy	.	8r	.	.	.	8r	.	8r	.	.	8r	.	.	8r	.	.
!	!	!	!	!	!	!	!	!	!	!LO:TX:a:t=P:problem=w źródle kropka nad forte (?)	!	!	!	!	!	!	!	!LO:TX:a:Bi:t=Choro:rj	!	!
!	!	!	!	!	!	!	!	!	!	!	!LO:DY:b:rj	!	!	!	!	!	!LO:DY:a:rj	!	!	!
8r	.	8r	.	16.d/LL	.	16.f/LL	.	.	.	16.ff\LL	f	8r	.	.	16.d\	.	f	16.f\	Łyk	.
.	.	.	.	32d/JJk	.	32f/JJk	.	.	.	32ff\JJk	.	.	.	.	32d\	.	.	32f\	łyk	.
=100	=100	=100	=100	=100	=100	=100	=100	=100	=100	=100	=100	=100	=100	=100	=100	=100	=100	=100	=100	=100
!LO:TX:t=P:problem:problem=w źródle 3 takty ukryte [nieoznaczona powtórka]	!	!LO:TX:t=P:problem:problem=w źródle 3 takty ukryte [nieoznaczona powtórka]	!	!	!	!	!	!	!	!	!	!	!	!	!	!	!	!	!	!
!	!	!	!	!LO:TX:t=P:problem:problem=w źródle 3 takty ukryte [nieoznaczona powtórka]	!	!LO:TX:t=P:problem:problem=w źródle 3 takty ukryte [nieoznaczona powtórka]	!	!	!	!	!	!	!	!	!	!	!	!	!	!
(y>8qF#X\yy	.	(y<8qF#X/yy	.	8qd/yy	.	(y<8qf/yy	.	.	.	(<8qff/	.	(<8qF#X/	.	.	(<8qd/	.	.	(<8qf/	.	.
!	!	!	!	!	!	!	!	!	!LO:DY:b:rj	!	!	!	!	!	!	!	!	!	!	!
4.G\)yy	.	4.G/)yy	.	4B/yy	.	4d/)yy	.	16r	f	4dd\)	.	4.G\)	gól	.	4B\)	.	.	4d\)	.	.
.	.	.	.	.	.	.	.	32g/LLL	.	.	.	.	.	.	.	.	.	.	.	.
.	.	.	.	.	.	.	.	32g/JJ	.	.	.	.	.	.	.	.	.	.	.	.
.	.	.	.	.	.	.	.	8g/J	.	.	.	.	.	.	.	.	.	.	.	.
.	.	.	.	16.d/LLyy	.	16.f/LLyy	.	8r	.	16.ff\LL	.	.	.	.	16.d\	.	.	16.f\	.	.
.	.	.	.	32d/JJkyy	.	32f/JJkyy	.	.	.	32ff\JJk	.	.	.	.	32d\	.	.	32f\	.	.
!!LO:PB:g=original
=101	=101	=101	=101	=101	=101	=101	=101	=101	=101	=101	=101	=101	=101	=101	=101	=101	=101	=101	=101	=101
(y<8qF#X/yy	.	8qF#X/yy	.	8qd/yy	.	(y<8qf/yy	.	.	.	(<8qff/	.	8qF#X/	.	.	(<8qd/	.	.	(<8qf/	.	.
4G\)yy	.	4G/yy	.	4B/yy	.	4d/)yy	.	16r	.	4dd\)	.	4G\	.	.	4B\)	.	.	4d\)	Łyk	.
.	.	.	.	.	.	.	.	32g/LLL	.	.	.	.	.	.	.	.	.	.	.	.
.	.	.	.	.	.	.	.	32g/JJ	.	.	.	.	.	.	.	.	.	.	.	.
.	.	.	.	.	.	.	.	8g/J	.	.	.	.	.	.	.	.	.	.	.	.
16.E\LLyy	.	16.G/LLyy	.	16.c/LLyy	.	16.c/LLyy	.	16.g/LL	.	16.cc\LL	.	16.E\	.	.	16.G/	.	.	16.c\	Nie-	.
32C\JJkyy	.	32G/JJkyy	.	32e/JJkyy	.	32e/JJkyy	.	32g/JJk	.	32ee\JJk	.	32C\	.	.	32G/	.	.	32e\	-wy-	.
=102	=102	=102	=102	=102	=102	=102	=102	=102	=102	=102	=102	=102	=102	=102	=102	=102	=102	=102	=102	=102
8F\Lyy	.	8F/Lyy	.	8A/Lyy	.	8A/Lyy	.	8f/L	.	8a\L	.	8F\	.	.	8F/	.	.	8A\	-pi-	.
8D\Jyy	.	8F/Jyy	.	8d/Jyy	.	8d/Jyy	.	8f/J	.	8dd\J	.	8D\	.	.	8F/	.	.	8d\	-iesz	.
!LO:TX:t=P:problem=mixed beam	!	!	!	!	!	!	!	!	!	!	!	!	!	!	!	!	!	!	!	!
!	!	!	!	!LO:N:vis=8.	!	!LO:N:vis=8.	!	!	!	!	!	!	!	!	!	!	!	!	!	!
16.G\LLyy	.	16.G/LLyy	.	16.G/LLyy	.	16.G/LLyy	.	16.g/LL	.	16.g/LL	.	16.G\	.	.	16.G/	.	.	16.G/	ie-	.
!	!	!	!	!LO:N:vis=16	!	!LO:N:vis=16	!	!	!	!	!	!	!	!	!	!	!	!	!	!
32GG/JJkyy	.	32F/JJkyy	.	32B/JJkyy	.	32B/JJkyy	.	32f/JJk	.	32b/JJk	.	32GG/	.	.	32F/	.	.	32B\	-steś	.
=103	=103	=103	=103	=103	=103	=103	=103	=103	=103	=103	=103	=103	=103	=103	=103	=103	=103	=103	=103	=103
8C/	.	8E/	.	8c/	.	8c/	.	8e/	.	8cc\	.	8C/	.	.	8E/	.	.	8c\	bzik	.
8r;>	.	8r;>	.	8r;>	.	8r;>	.	8r;>	.	8r;>	.	8r;>	.	.	8r;>	.	.	8r;>	.	.
=104||	=104||	=104||	=104||	=104||	=104||	=104||	=104||	=104||	=104||	=104||	=104||	=104||	=104||	=104||	=104||	=104||	=104||	=104||	=104||	=104||
!!!OMD: andante
*k[f#]	*	*k[f#]	*	*k[f#]	*	*k[f#]	*	*k[f#]	*	*k[f#]	*	*k[f#]	*	*	*k[f#]	*	*	*k[f#]	*	*
*M2/4	*	*M2/4	*	*M2/4	*	*M2/4	*	*M2/4	*	*M2/4	*	*M2/4	*	*	*M2/4	*	*	*M2/4	*	*
!	!	!	!LO:DY:b:rj	!	!	!	!LO:DY:b:rj	!	!	!	!	!	!	!	!	!	!	!LO:TX:a:Bi:t=Solo dolce	!	!
8G\	.	8G/	p	8B/	.	8d/	p	8r	.	8r	.	8G\	.	.	8B\	.	.	8d\	A	.
=105	=105	=105	=105	=105	=105	=105	=105	=105	=105	=105	=105	=105	=105	=105	=105	=105	=105	=105	=105	=105
[>8G\L	.	[<8G/L	.	(<8B/L	.	(<8d/L	.	2r	.	2r	.	8G\	.	.	8B\	.	.	8d\	te-	.
16G\L]	.	16G/L]	.	16G/L)	.	16B/L)	.	.	.	.	.	16G\	.	.	16G/	.	.	16B\	-raz	.
16G'>\JJ	.	16G'</JJ	.	16G/JJ	.	16B/JJ	.	.	.	.	.	16G\	.	.	16G/	.	.	16B\	mał-	.
8G\L	.	8G/L	.	8A/L	.	8c/L	.	.	.	.	.	8G\	.	.	8A/	.	.	8c\	-żon-	.
8F#\J	.	8F#/J	.	8A/J	.	8d/J	.	.	.	.	.	8F#\	.	.	8A/	.	.	8d\	-ki	.
!!LO:LB:g=original
=106	=106	=106	=106	=106	=106	=106	=106	=106	=106	=106	=106	=106	=106	=106	=106	=106	=106	=106	=106	=106
!	!	!	!	!	!	!	!	!	!	!	!	!LO:TX:a:Bi:t=Baſso\ncanto:problem=w źródle partia po łamaniu systemu zapisana jako druga od dołu	!	!	!	!	!	!	!	!
4G\	.	(<4G/	.	(<4B/	.	4B/	.	4r	.	4r	.	4G\	.	.	4G/	.	.	4B\	zdro-	.
8D\	.	8F#/)	.	8A/)	.	8A/	.	8r	.	8r	.	8D\	.	.	8F#/	.	.	8A\	-wie	.
!	!LO:DY:b:rj	!	!	!	!	!	!LO:DY:a:rj	!	!	!	!	!	!	!	!	!	!	!LO:TX:a:Bi:t=Choro:rj	!	!
8G\	f	8G/	.	8B/	.	8d/	f	8b/	.	8dd\	.	8G\	.	.	8B\	A	.	8d\	[[Niech	.
=107	=107	=107	=107	=107	=107	=107	=107	=107	=107	=107	=107	=107	=107	=107	=107	=107	=107	=107	=107	=107
[>8G\L	.	[<8G/L	.	(<8B/L	.	(<8d/L	.	(<8b/L	.	(>8dd\L	.	8G\	.	.	8B\	te-	.	8d\	każ-	.
16G\L]	.	16G/L]	.	16G/L)	.	16B/L)	.	16g/L)	.	16b\L)	.	16G\	.	.	16G/	-raz	.	16B\	-dy	.
16G'>\JJ	.	16G'</JJ	.	16G'</JJ	.	16B'</JJ	.	16g'</JJ	.	16b'>\JJ	.	16G\	.	.	16G/	mał-	.	16B\	co	.
8G\L	.	8G/L	.	8A/L	.	8c/L	.	8a/L	.	8cc\L	.	8G\	.	.	8A/	-żon-	.	8c\	ich	.
8F#\J	.	8F#/J	.	8A/J	.	8d/J	.	8a/J	.	8dd\J	.	8F#\	.	.	8A/	-ki	.	8d\	zna	.
=108	=108	=108	=108	=108	=108	=108	=108	=108	=108	=108	=108	=108	=108	=108	=108	=108	=108	=108	=108	=108
4G\	.	4G/	.	(>4B/	.	(>4B/	.	(<4g/	.	(>4b\	.	4G\	.	.	4G/	zdro-	.	4B\	po-	.
8D\	.	8F#/	.	8A/)	.	8A/)	.	8f#/)	.	8a\)	.	8D\	.	.	8F#/	-wie	.	8A\	-wie]]	.
!	!LO:DY:b:rj	!	!	!	!	!	!LO:DY:a:rj	!	!	!	!	!	!	!	!	!	!	!LO:TX:a:Bi:t=Solo:rj	!	!
8G\	p	8G/	.	8B/	.	8d/	p	8r	.	8r	.	8G\	.	.	8B\	.	.	8d\	Niech	.
=109	=109	=109	=109	=109	=109	=109	=109	=109	=109	=109	=109	=109	=109	=109	=109	=109	=109	=109	=109	=109
!LO:TX:t=P:problem:problem=w źródle 2 takty ukryte [nieoznaczona powtórka]	!	!LO:TX:t=P:problem:problem=w źródle 2 takty ukryte [nieoznaczona powtórka]	!	!	!	!	!	!	!	!	!	!	!	!	!	!	!	!	!	!
!	!	!	!	!LO:TX:t=P:problem:problem=w źródle 2 takty ukryte [nieoznaczona powtórka]	!	!LO:TX:t=P:problem:problem=w źródle 2 takty ukryte [nieoznaczona powtórka]	!	!	!	!	!	!	!	!	!	!	!	!	!	!
[y>8G\Lyy	.	[y<8G/Lyy	.	(y<8B/Lyy	.	(y<8d/Lyy	.	2r	.	2r	.	8G\	.	.	8B\	.	.	8d\	każ-	.
16G\L]yy	.	16G/L]yy	.	16G/L)yy	.	16B/L)yy	.	.	.	.	.	16G\	.	.	16G/	.	.	16B\	-dy	.
16G'>\JJyy	.	16G'</JJyy	.	16G'</JJyy	.	16B'</JJyy	.	.	.	.	.	16G\	.	.	16G/	.	.	16B\	co	.
8G\Lyy	.	8G/Lyy	.	8A/Lyy	.	8c/Lyy	.	.	.	.	.	8G\	.	.	8A/	.	.	8c\	ią	.
8F#\Jyy	.	8F#/Jyy	.	8A/Jyy	.	8d/Jyy	.	.	.	.	.	8F#\	.	.	8A/	.	.	8d\	zna	.
=110	=110	=110	=110	=110	=110	=110	=110	=110	=110	=110	=110	=110	=110	=110	=110	=110	=110	=110	=110	=110
4G\yy	.	4G/yy	.	(y>4B/yy	.	(y>4B/yy	.	4r	.	4r	.	4G\	.	.	4G/	.	.	4B\	po-	.
8D\yy	.	8F#/yy	.	8A/)yy	.	8A/)yy	.	8r	.	8r	.	8D\	.	.	8F#/	.	.	8A\	-wie	.
!LO:TX:a:t=P:problem=w źródle niezdefiniowana dynamika na koniec tego taktu	!	!	!	!	!	!LO:TX:a:t=P:problem=w źródle niezdefiniowana dynamika na koniec tego taktu	!	!	!	!	!	!	!	!	!	!	!	!	!	!
!	!	!	!	!	!	!	!	!	!	!	!	!	!	!	!	!	!	!LO:TX:a:Bi:t=Choro:rj	!	!
8G\yy	.	8G/yy	.	8B/yy	.	8d/yy	.	8b/	.	8dd\	.	8G\	.	.	8B\	.	.	8d\	Niech	.
!!LO:PB:g=original
=111	=111	=111	=111	=111	=111	=111	=111	=111	=111	=111	=111	=111	=111	=111	=111	=111	=111	=111	=111	=111
4G\	.	4G/	.	4B/	.	(<4B/	.	4g/	.	4b/	.	4G\	.	.	4G/	.	.	4B\	po-	.
8D\	.	8F#/	.	8A/	.	8A/)	.	8f#/	.	8a/	.	8D\	.	.	8F#/	.	.	8A\	-wie	.
8r;>	.	8r;>	.	8r;>	.	8r;>	.	8r;>	.	8r;>	.	8r;>	.	.	8r;>	.	.	8r;>	.	.
=112||	=112||	=112||	=112||	=112||	=112||	=112||	=112||	=112||	=112||	=112||	=112||	=112||	=112||	=112||	=112||	=112||	=112||	=112||	=112||	=112||
!!!OMD: Allegretto
*M3/8	*	*M3/8	*	*M3/8	*	*M3/8	*	*M3/8	*	*M3/8	*	*M3/8	*	*	*M3/8	*	*	*M3/8	*	*
!	!	!	!	!	!	!LO:TX:a:t=P:problem=w źródle wytarte 3 takty i poprawione przez skryptora	!	!	!	!	!	!	!	!	!	!	!	!	!	!
!	!LO:DY:b:rj	!	!	!	!	!	!LO:DY:b:rj	!	!	!	!	!	!	!	!	!	!	!LO:TX:a:Bi:t=Solo	!	!
8D\	p	8r	.	8r	.	8r	p	4.r	.	8r	.	16.D\	.	.	16.F#/	Do-	.	16.A\	.	.
.	.	.	.	.	.	.	.	.	.	.	.	32D\	.	.	32G/	-bra	.	32B\	.	.
!	!	!	!	!	!LO:DY:b:rj	!	!	!	!	!	!	!	!	!	!	!	!	!	!	!
8r	.	8dL 8A\	.	8c/L	p	8f#/L	.	.	.	16r	.	8D\	.	.	8A/	za-	.	8c\	.	.
!	!	!	!	!	!	!	!	!	!	!LO:TX:t=P:problem=mixed beam	!	!	!	!	!	!	!	!	!	!
!	!	!	!	!	!	!	!	!	!	!	!LO:DY:b:rj	!	!	!	!	!	!	!	!	!
.	.	.	.	.	.	.	.	.	.	(>16d/KL	p	.	.	.	.	.	.	.	.	.
8r	.	8dJ 8A\	.	8c/J	.	8f#/J	.	.	.	8dd\J)	.	8D\	.	.	8F#/	-wsze	.	8A\	.	.
=113	=113	=113	=113	=113	=113	=113	=113	=113	=113	=113	=113	=113	=113	=113	=113	=113	=113	=113	=113	=113
*	*	*	*	*	*	*	*	*	*	*rep	*	*	*	*	*	*	*	*	*	*
8G\	.	8r	.	8r	.	8r	.	4.r	.	8r	.	16.G\	.	.	16.G/	i	.	16.B\	.	.
.	.	.	.	.	.	.	.	.	.	.	.	32G\	.	.	32A/	Ko-	.	32c\	.	.
8r	.	8dL 8G\	.	8B/L	.	8g/L	.	.	.	16r	.	8G\	.	.	8B\	-cha-	.	8d\	.	.
!	!	!	!	!	!	!	!	!	!	!LO:TX:t=P:problem=mixed beam	!	!	!	!	!	!	!	!	!	!
.	.	.	.	.	.	.	.	.	.	(>16d/KL	.	.	.	.	.	.	.	.	.	.
8r	.	8dJ 8G\	.	8B/J	.	8g/J	.	.	.	8dd\J)	.	8G\	.	.	8G/	-na	.	8B\	.	.
*	*	*	*	*	*	*	*	*	*	*Xrep	*	*	*	*	*	*	*	*	*	*
=114	=114	=114	=114	=114	=114	=114	=114	=114	=114	=114	=114	=114	=114	=114	=114	=114	=114	=114	=114	=114
8C/	.	8r	.	8r	.	8r	.	4.r	.	4.r	.	16.C/	.	.	16.G/	pij	.	16.e\	.	.
.	.	.	.	.	.	.	.	.	.	.	.	32C/	.	.	32G/	za	.	32e\	.	.
8r	.	8eL 8c\	.	8c/L	.	8e/L	.	.	.	.	.	8C/	.	.	8G/	zdro-	.	8e\	.	.
8AA/	.	8eJ 8c\	.	8c/J	.	8a/J	.	.	.	.	.	8AA/	.	.	8A/	-wie	.	8c\	.	.
!!LO:LB:g=original
=115	=115	=115	=115	=115	=115	=115	=115	=115	=115	=115	=115	=115	=115	=115	=115	=115	=115	=115	=115	=115
16D\	.	16d 16A\	.	16c/	.	16f#/KL	.	4.r	.	4.r	.	16.D\	.	.	16.F#/	iej	.	16.A\	.	.
16r	.	16r	.	16r	.	16r	.	.	.	.	.	.	.	.	.	.	.	.	.	.
.	.	.	.	.	.	.	.	.	.	.	.	32D\	.	.	32F#/	szam-	.	32d\	.	.
!LO:TX:t=P:problem=mixed beam	!	!	!	!	!	!	!	!	!	!	!	!	!	!	!	!	!	!	!	!
8AA/L	.	8dL 8G\	.	8B/L	.	8g/	.	.	.	.	.	8G\	.	.	8G/	-pa-	.	8G/	.	.
8G\J	.	8dJ 8G\	.	8B/J	.	8g/J	.	.	.	.	.	8G\	.	.	8G/	-na	.	8G/	.	.
=116	=116	=116	=116	=116	=116	=116	=116	=116	=116	=116	=116	=116	=116	=116	=116	=116	=116	=116	=116	=116
!	!	!	!	!	!	!	!	!	!	!	!	!	!	!	!	!	!	!LO:TX:a:Bi:t=Choro	!	!
!	!LO:DY:b:rj	!	!LO:DY:b:rj	!	!	!	!LO:DY:b	!	!	!	!LO:DY:b:rj	!	!	!	!	!	!	!	!	!LO:DY:b:rj
8D\	f	8d\	f	8r	.	8r	f	16.f#/LL	.	16.a/LL	f	16.D\	.	.	16.F#/	Do-	.	16.A\	.	f
.	.	.	.	.	.	.	.	32g/JJk	.	32b/JJk	.	32D\	.	.	32G/	-bra	.	32B\	.	.
8r	.	8r	.	8dL 8c/	.	8f#L 8A/	.	8a/L	.	8cc/L	.	8D\	.	.	8A/	za-	.	8c\	.	.
8r	.	8r	.	8dJ 8c/	.	8f#J 8A/	.	8f#/J	.	8a/J	.	8D\	.	.	8F#/	-wsze	.	8A\	.	.
=117	=117	=117	=117	=117	=117	=117	=117	=117	=117	=117	=117	=117	=117	=117	=117	=117	=117	=117	=117	=117
8GG/	.	8G/	.	8r	.	8r	.	16.g/LL	.	16.b\LL	.	16.G\	.	.	16.G/	i	.	16.B\	.	.
.	.	.	.	.	.	.	.	32a/JJk	.	32cc\JJk	.	32G\	.	.	32A/	Ko-	.	32c\	.	.
8r	.	8r	.	8dL 8B/	.	8gL 8G/	.	8b/L	.	8dd\L	.	8G\	.	.	8B\	-cha-	.	8d\	.	.
8r	.	8r	.	8dJ 8B/	.	8gJ 8G/	.	8g/J	.	8b\J	.	8G\	.	.	8G/	-na	.	8B\	.	.
=118	=118	=118	=118	=118	=118	=118	=118	=118	=118	=118	=118	=118	=118	=118	=118	=118	=118	=118	=118	=118
8C/	.	8c\	.	16.c/LL	.	16.e/LL	.	16.cc\LL	.	16.ee\LL	.	16.C/	.	.	16.G/	pij	.	16.e\	.	.
.	.	.	.	32c/JJk	.	32e/JJk	.	32cc\JJk	.	32ee\JJk	.	32C/	.	.	32G/	za	.	32e\	.	.
8r	.	8r	.	8c/L	.	8e/L	.	8cc\L	.	8ee\L	.	8C/	.	.	8G/	zdro-	.	8e\	.	.
8AA/	.	8A/	.	8c/J	.	8a/J	.	8a\J	.	8cc\J	.	8AA/	.	.	8A/	-wie	.	8c\	.	.
=119	=119	=119	=119	=119	=119	=119	=119	=119	=119	=119	=119	=119	=119	=119	=119	=119	=119	=119	=119	=119
16D\	.	16d\	.	16c/	.	16f# 16A/	.	16.f#/LL	.	16.a\LL	.	16.D\	.	.	16.F#/	iej	.	16.A\	.	.
16r	.	16r	.	16r	.	16r	.	.	.	.	.	.	.	.	.	.	.	.	.	.
.	.	.	.	.	.	.	.	32f#/JJk	.	32dd\JJk	.	32D\	.	.	32F#/	szam-	.	32d\	.	.
!LO:TX:t=P:problem=mixed beam	!	!	!	!LO:TX:t=P:problem=mixed beam	!	!	!	!	!	!	!	!	!	!	!	!	!	!	!	!
8GG/L	.	8G/	.	8B/L	.	8gL 8B/	.	8g/L	.	8g/L	.	8D\	.	.	8G/	-pa-	.	8G/	.	.
8G\J	.	8g 8G\	.	8ggJ 8b\	.	8gJ 8B/	.	8g/J	.	8g/J	.	8G\	.	.	8G/	-na	.	8G/	.	.
!!LO:PB:g=original
=120||	=120||	=120||	=120||	=120||	=120||	=120||	=120||	=120||	=120||	=120||	=120||	=120||	=120||	=120||	=120||	=120||	=120||	=120||	=120||	=120||
*k[]	*	*k[]	*	*k[]	*	*k[]	*	*k[]	*	*k[]	*	*k[]	*	*	*k[]	*	*	*k[]	*	*
!	!	!	!	!	!	!	!	!	!	!	!	!LO:TX:a:Bi:t=Solo:rj	!	!	!	!	!	!	!	!
8qF#X/	.	(<8qF#X/	.	.	.	.	.	.	.	.	.	(<8qF#X/	.	.	.	.	.	.	.	.
!	!	!	!	!	!	!	!	!	!	!LO:TX:a:t=P:problem=w źródle kasownik fn przy kluczu tylko w głosach wokalnych	!	!	!	!	!	!	!	!	!	!
!	!	!	!	!	!	!	!	!	!	!	!	!	!	!	!	!	!	!LO:TX:a:Bi:t=Solo:rj	!	!
4.G\	.	4.G/)	.	8r	.	8r	.	4.r	.	4.r	.	4.G\)	gól	.	8r	.	.	8r	.	.
.	.	.	.	8r	.	8r	.	.	.	.	.	.	.	.	8r	.	.	8r	.	.
.	.	.	.	16.d/LL	.	16.f/LL	.	.	.	.	.	.	.	.	16.d\	.	.	16.fn\	Łyk	.
.	.	.	.	32d/JJk	.	32f/JJk	.	.	.	.	.	.	.	.	32d\	.	.	32f\	.	.
=121	=121	=121	=121	=121	=121	=121	=121	=121	=121	=121	=121	=121	=121	=121	=121	=121	=121	=121	=121	=121
!LO:TX:t=P:problem:problem=w źródle 2 takty ukryte [nieoznaczona powtórka]	!	!LO:TX:t=P:problem:problem=w źródle 2 takty ukryte [nieoznaczona powtórka]	!	!	!	!	!	!	!	!	!	!	!	!	!	!	!	!	!	!
!	!	!	!	!LO:TX:t=P:problem:problem=w źródle 2 takty ukryte [nieoznaczona powtórka]	!	!LO:TX:t=P:problem:problem=w źródle 2 takty ukryte [nieoznaczona powtórka]	!	!	!	!	!	!	!	!	!	!	!	!	!	!
(y>8qF#X\yy	.	(y<8qF#X/yy	.	8qf/yy	.	(y<8qf/yy	.	.	.	.	.	(<8qF#X/	.	.	(<8qd/	.	.	(<8qf/	.	.
!	!	!	!	!	!	!	!	!	!LO:DY:a:rj	!	!	!	!	!	!	!	!	!	!	!
4.G\)yy	.	4.G/)yy	.	4d/yy	.	4d/)yy	.	16r	p	4.r	.	4.G\)	gól	.	4B\)	.	.	4d\)	.	.
.	.	.	.	.	.	.	.	32g/LLL	.	.	.	.	.	.	.	.	.	.	.	.
.	.	.	.	.	.	.	.	32g/JJ	.	.	.	.	.	.	.	.	.	.	.	.
.	.	.	.	.	.	.	.	8g/J	.	.	.	.	.	.	.	.	.	.	.	.
.	.	.	.	16.d/LLyy	.	16.f/LLyy	.	8r	.	.	.	.	.	.	16.d\	.	.	16.f\	.	.
.	.	.	.	32d/JJkyy	.	32f/JJkyy	.	.	.	.	.	.	.	.	32d\	.	.	32f\	.	.
=122	=122	=122	=122	=122	=122	=122	=122	=122	=122	=122	=122	=122	=122	=122	=122	=122	=122	=122	=122	=122
*	*	*	*	*	*	*	*	*rep	*	*	*	*	*	*	*	*	*	*	*	*
(y<8qF#X/yy	.	8qF#X/yy	.	8qd/yy	.	(y<8qf/yy	.	.	.	.	.	(<8qF#X/	.	.	(<8qd/	.	.	(<8qf/	.	.
4G\)yy	.	4G/yy	.	4B/yy	.	4d/)yy	.	16r	.	4.r	.	4G\)	gól	.	4B\)	.	.	4d\)	.	.
.	.	.	.	.	.	.	.	32g/LLL	.	.	.	.	.	.	.	.	.	.	.	.
.	.	.	.	.	.	.	.	32g/JJ	.	.	.	.	.	.	.	.	.	.	.	.
.	.	.	.	.	.	.	.	8g/J	.	.	.	.	.	.	.	.	.	.	.	.
16.E\LLyy	.	16.G/LLyy	.	16.c/LLyy	.	16.c/LLyy	.	8r	.	.	.	16.E\	Kto	.	16.G/	.	.	16.c\	Wy-	.
32C\JJkyy	.	32G/JJkyy	.	32e/JJkyy	.	32e/JJkyy	.	.	.	.	.	32C/	wy-	.	32G/	.	.	32e\	-pij	.
*	*	*	*	*	*	*	*	*Xrep	*	*	*	*	*	*	*	*	*	*	*	*
=123	=123	=123	=123	=123	=123	=123	=123	=123	=123	=123	=123	=123	=123	=123	=123	=123	=123	=123	=123	=123
!	!	!	!	!	!	!LO:TX:a:Bi:t=Col 2o.	!	!	!	!	!	!	!	!	!	!	!	!	!	!
8F\L	.	8F/L	.	8A/L	.	8A/Lyy	.	4.r	.	4.r	.	8F\	-pi-	.	8F/	.	.	8A\	że	.
8D\J	.	8F/J	.	8d/J	.	8d/Jyy	.	.	.	.	.	8D\	-ie	.	8F/	.	.	8d\	nie	.
!LO:TX:t=P:problem=mixed beam	!	!	!	!	!	!	!	!	!	!	!	!	!	!	!	!	!	!	!	!
!	!	!	!	!LO:N:vis=8.	!	!LO:N:vis=8.	!	!	!	!	!	!	!	!	!	!	!	!	!	!
16.G\LL	.	16.G/LL	.	16.g/LL	.	16.g/LLyy	.	.	.	.	.	16.G\	to	.	16.G/	.	.	16.g\	bę-	.
!	!	!	!	!LO:N:vis=16	!	!LO:N:vis=16	!	!	!	!	!	!	!	!	!	!	!	!	!	!
32GG/JJk	.	32F/JJk	.	32B/JJk	.	32B/JJkyy	.	.	.	.	.	32GG/	mi	.	32F/	.	.	32B\	-dziesz	.
=124	=124	=124	=124	=124	=124	=124	=124	=124	=124	=124	=124	=124	=124	=124	=124	=124	=124	=124	=124	=124
!	!	!	!	!	!	!	!	!LO:TX:a:t=P:problem=W źródle w takcie wpisane poprawki przez skryptora	!	!	!	!	!	!	!	!	!	!	!	!
8C/	.	8E/	.	8c/	.	8c/yy	.	4.r	.	8r	.	8C/	Król	.	8E/	.	.	8c\	bzik	.
8r	.	8r	.	8r	.	8ryy	.	.	.	8r	.	8r	.	.	8r	.	.	8r	.	.
!	!	!	!	!	!	!	!	!	!	!	!	!	!	!	!	!	!	!LO:TX:a:Bi:t=Choro:rj	!	!
8r	.	8r	.	16.d/LL	.	16.f/LL	.	.	.	16.ff\LL	.	8r	.	.	16.d\	.	.	16.f\	Łyk	.
.	.	.	.	32d/JJk	.	32f/JJk	.	.	.	32ff\JJk	.	.	.	.	32d\	.	.	32f\	łyk	.
!!LO:LB:g=original
=125	=125	=125	=125	=125	=125	=125	=125	=125	=125	=125	=125	=125	=125	=125	=125	=125	=125	=125	=125	=125
!LO:TX:t=P:problem:problem=w źródle 2 takty ukryte [nieoznaczona powtórka]	!	!LO:TX:t=P:problem:problem=w źródle 2 takty ukryte [nieoznaczona powtórka]	!	!	!	!	!	!	!	!	!	!	!	!	!	!	!	!	!	!
!	!	!	!	!LO:TX:t=P:problem:problem=w źródle 2 takty ukryte [nieoznaczona powtórka]	!	!LO:TX:t=P:problem:problem=w źródle 2 takty ukryte [nieoznaczona powtórka]	!	!	!	!	!	!	!	!	!	!	!	!	!	!
(y>8qF#X\yy	.	(y<8qF#X/yy	.	8qf/yy	.	(y<8qf/yy	.	.	.	(<8qee/	.	(<8qF#X/	.	.	(<8qd/	.	.	(<8qf/	.	.
4.G\)yy	.	4.G/)yy	.	4d/yy	.	4d/)yy	.	16r	.	4.dd\)	.	4.G\)	gól	.	4B\)	.	.	4d\)	łyk	.
.	.	.	.	.	.	.	.	32g/LLL	.	.	.	.	.	.	.	.	.	.	.	.
.	.	.	.	.	.	.	.	32g/JJ	.	.	.	.	.	.	.	.	.	.	.	.
.	.	.	.	.	.	.	.	8g/J	.	.	.	.	.	.	.	.	.	.	.	.
.	.	.	.	16.d/LLyy	.	16.f/LLyy	.	8r	.	.	.	.	.	.	16.d\	.	.	16.f\	.	.
.	.	.	.	32d/JJkyy	.	32f/JJkyy	.	.	.	.	.	.	.	.	32d\	.	.	32f\	.	.
=126	=126	=126	=126	=126	=126	=126	=126	=126	=126	=126	=126	=126	=126	=126	=126	=126	=126	=126	=126	=126
(y<8qF#X/yy	.	8qF#X/yy	.	8qd/yy	.	(y<8qf/yy	.	.	.	(<8qee/	.	(<8qF#X/	.	.	(<8qd/	.	.	(<8qf/	.	.
4G\)yy	.	4G/yy	.	4B/yy	.	4d/)yy	.	16r	.	4dd\)	.	4G\)	gól	.	4B\)	.	.	4d\)	.	.
.	.	.	.	.	.	.	.	32g/LLL	.	.	.	.	.	.	.	.	.	.	.	.
.	.	.	.	.	.	.	.	32g/JJ	.	.	.	.	.	.	.	.	.	.	.	.
.	.	.	.	.	.	.	.	8g/J	.	.	.	.	.	.	.	.	.	.	.	.
16.E\LLyy	.	16.G/LLyy	.	16.c/LLyy	.	16.c/LLyy	.	16.g/LL	.	16.cc\LL	.	16.E\	Kto	.	16.G/	Wy-	.	16.c\	Wy-	.
32C\JJkyy	.	32G/JJkyy	.	32e/JJkyy	.	32e/JJkyy	.	32g/JJk	.	32ee\JJk	.	32C\	wy-	.	32G/	-pij-	.	32e\	-pij	.
=127	=127	=127	=127	=127	=127	=127	=127	=127	=127	=127	=127	=127	=127	=127	=127	=127	=127	=127	=127	=127
8F\L	.	8F/L	.	8A/L	.	8A/L	.	8f/L	.	8a\L	.	8F\	-pi-	.	8F/	-że	.	8A\	że	.
8D\J	.	8F/J	.	8d/J	.	8d/J	.	8f/J	.	8dd\J	.	8D\	-ie	.	8F/	nie-	.	8d\	nie-	.
!LO:TX:t=P:problem=mixed beam	!	!	!	!	!	!	!	!	!	!	!	!	!	!	!	!	!	!	!	!
16.G\LL	.	16.G/LL	.	16.g/LL	.	16.g/LL	.	16.g/LL	.	16.gg\LL	.	16.G\	to	.	16.G/	-bę-	.	16.g\	-bę-	.
32GG/JJk	.	32G/JJk	.	32f/JJk	.	32bJJk 32d/	.	32f/JJk	.	32g\JJk	.	32GG/	mi	.	32F/	-dziesz	.	32B\	-dziesz	.
=128	=128	=128	=128	=128	=128	=128	=128	=128	=128	=128	=128	=128	=128	=128	=128	=128	=128	=128	=128	=128
!	!	!	!	!LO:N:vis=8	!	!	!	!	!	!	!	!	!	!	!	!	!	!	!	!
8C/L	.	8c/	.	16e/	.	8cc 8e/	.	8e/	.	8cc\	.	8C/	Król	.	8E/	bzik	.	8c\	bzik	.
!	!	!	!	!LO:N:vis=8	!	!	!	!	!	!	!	!	!	!	!	!	!	!	!	!
.	.	.	.	16r	.	.	.	.	.	.	.	.	.	.	.	.	.	.	.	.
8CC/J	.	8C/	.	8cc 8e 8G/	.	8ccc 8ee 8g\	.	8cc\	.	8ccc\	.	8r	.	.	8r	.	.	8r	.	.
8r;>	.	8r;>	.	8r;>	.	8r;>	.	8r;>	.	8r;>	.	8r;>	.	.	8r;>	.	.	8r;>	.	.
!!LO:PB:g=original
=129||	=129||	=129||	=129||	=129||	=129||	=129||	=129||	=129||	=129||	=129||	=129||	=129||	=129||	=129||	=129||	=129||	=129||	=129||	=129||	=129||
*k[]	*	*k[]	*	*k[]	*	*k[]	*	*k[]	*	*k[]	*	*k[]	*	*	*k[]	*	*	*k[]	*	*
*M4/4	*	*M4/4	*	*M4/4	*	*M4/4	*	*M4/4	*	*M4/4	*	*M4/4	*	*	*M4/4	*	*	*M4/4	*	*
*met(c)	*	*met(c)	*	*met(c)	*	*met(c)	*	*met(c)	*	*met(c)	*	*met(c)	*	*	*met(c)	*	*	*met(c)	*	*
!	!	!	!	!	!	!	!	!	!	!	!	!	!	!	!	!	!	!LO:TX:a:Bi:t=Choro:rj	!	!
1r	.	1r	.	1r	.	1r	.	1r	.	1r	.	8G\	Wi-	.	8G/	.	.	8G/	.	.
.	.	.	.	.	.	.	.	.	.	.	.	8G\	-wat	.	8G/	.	.	8G/	.	.
.	.	.	.	.	.	.	.	.	.	.	.	8r	.	.	8r	.	.	8r	.	.
.	.	.	.	.	.	.	.	.	.	.	.	8G\	niech	.	8G/	.	.	8G/	.	.
.	.	.	.	.	.	.	.	.	.	.	.	8G\	sre-	.	8G/	.	.	8G/	.	.
.	.	.	.	.	.	.	.	.	.	.	.	8G\	-brna	.	8G/	.	.	8G/	.	.
.	.	.	.	.	.	.	.	.	.	.	.	8G\	pa-	.	8G/	.	.	8G/	.	.
.	.	.	.	.	.	.	.	.	.	.	.	8G\	-ra	.	8G/	.	.	8G/	.	.
=130	=130	=130	=130	=130	=130	=130	=130	=130	=130	=130	=130	=130	=130	=130	=130	=130	=130	=130	=130	=130
*tremolo	*	*tremolo	*	*tremolo	*	*tremolo	*	*	*	*	*	*	*	*	*	*	*	*	*	*
!	!	!	!	!	!	!	!LO:DY:b:rj	!	!	!	!LO:DY:b:rj	!	!	!	!	!	!	!	!	!
32CLLL 32CC/	.	32eLLL 32G\	.	32g/LLL	.	32ee\LLL	f	2g/	.	2ee^<\	f	2C/	ży-	.	2G/	.	.	2e\	.	.
32C 32CC/	.	32e 32G\	.	32g/	.	32ee\	.	.	.	.	.	.	.	.	.	.	.	.	.	.
32C 32CC/	.	32e 32G\	.	32g/	.	32ee\	.	.	.	.	.	.	.	.	.	.	.	.	.	.
32C 32CC/	.	32e 32G\	.	32g/	.	32ee\	.	.	.	.	.	.	.	.	.	.	.	.	.	.
32C 32CC/	.	32e 32G\	.	32g/	.	32ee\	.	.	.	.	.	.	.	.	.	.	.	.	.	.
32C 32CC/	.	32e 32G\	.	32g/	.	32ee\	.	.	.	.	.	.	.	.	.	.	.	.	.	.
32C 32CC/	.	32e 32G\	.	32g/	.	32ee\	.	.	.	.	.	.	.	.	.	.	.	.	.	.
32C 32CC/	.	32e 32G\	.	32g/	.	32ee\	.	.	.	.	.	.	.	.	.	.	.	.	.	.
32C 32CC/	.	32e 32G\	.	32g/	.	32ee\	.	.	.	.	.	.	.	.	.	.	.	.	.	.
32C 32CC/	.	32e 32G\	.	32g/	.	32ee\	.	.	.	.	.	.	.	.	.	.	.	.	.	.
32C 32CC/	.	32e 32G\	.	32g/	.	32ee\	.	.	.	.	.	.	.	.	.	.	.	.	.	.
32C 32CC/	.	32e 32G\	.	32g/	.	32ee\	.	.	.	.	.	.	.	.	.	.	.	.	.	.
32C 32CC/	.	32e 32G\	.	32g/	.	32ee\	.	.	.	.	.	.	.	.	.	.	.	.	.	.
32C 32CC/	.	32e 32G\	.	32g/	.	32ee\	.	.	.	.	.	.	.	.	.	.	.	.	.	.
32C 32CC/	.	32e 32G\	.	32g/	.	32ee\	.	.	.	.	.	.	.	.	.	.	.	.	.	.
32CJJJ 32CC/	.	32eJJJ 32G\	.	32g/JJJ	.	32ee\JJJ	.	.	.	.	.	.	.	.	.	.	.	.	.	.
*Xtremolo	*	*Xtremolo	*	*Xtremolo	*	*Xtremolo	*	*	*	*	*	*	*	*	*	*	*	*	*	*
4C 4CC/	.	4e 4G\	.	4e/	.	4cc\	.	4e/	.	4cc\	.	4C/	-ie	.	4E/	.	.	4c\	.	.
4r	.	4r	.	4r	.	4r	.	4r	.	4r	.	8r	.	.	8r	.	.	8r	.	.
.	.	.	.	.	.	.	.	.	.	.	.	8C/	Spi	.	8G/	.	.	8e\	.	.
=131	=131	=131	=131	=131	=131	=131	=131	=131	=131	=131	=131	=131	=131	=131	=131	=131	=131	=131	=131	=131
2r	.	2r	.	2r	.	2r	.	2r	.	2r	.	4F\	do-	.	4A/	.	.	4d\	.	.
.	.	.	.	.	.	.	.	.	.	.	.	8F\	-brze	.	8A/	.	.	8d\	.	.
.	.	.	.	.	.	.	.	.	.	.	.	8r	.	.	8r	.	.	8r	.	.
4r	.	4r	.	4r	.	4r	.	4r	.	4r	.	4G\	ie	.	4B\	.	.	4d\	.	.
8r	.	8r	.	8r	.	8r	.	8r	.	8r	.	8r	.	.	8r	.	.	8r	.	.
8G\	.	8d 8G\	.	8gg 8b\	.	8gg\	.	8b\	.	8gg\	.	8G\	i	.	8B\	.	.	8g\	.	.
!!LO:LB:g=original
=132	=132	=132	=132	=132	=132	=132	=132	=132	=132	=132	=132	=132	=132	=132	=132	=132	=132	=132	=132	=132
*tremolo	*	*tremolo	*	*tremolo	*	*tremolo	*	*	*	*	*	*	*	*	*	*	*	*	*	*
32CLLL 32CC/	.	32eLLL 32G\	.	32eeLLL 32cc\	.	32cccLLL 32ee\	.	1cc	.	1ccc	.	1G 1C	.	.	1c	.	.	1e	pi-	.
32C 32CC/	.	32e 32G\	.	32ee 32cc\	.	32ccc 32ee\	.	.	.	.	.	.	.	.	.	.	.	.	.	.
32C 32CC/	.	32e 32G\	.	32ee 32cc\	.	32ccc 32ee\	.	.	.	.	.	.	.	.	.	.	.	.	.	.
32C 32CC/	.	32e 32G\	.	32ee 32cc\	.	32ccc 32ee\	.	.	.	.	.	.	.	.	.	.	.	.	.	.
32C 32CC/	.	32e 32G\	.	32ee 32cc\	.	32ccc 32ee\	.	.	.	.	.	.	.	.	.	.	.	.	.	.
32C 32CC/	.	32e 32G\	.	32ee 32cc\	.	32ccc 32ee\	.	.	.	.	.	.	.	.	.	.	.	.	.	.
32C 32CC/	.	32e 32G\	.	32ee 32cc\	.	32ccc 32ee\	.	.	.	.	.	.	.	.	.	.	.	.	.	.
32C 32CC/	.	32e 32G\	.	32ee 32cc\	.	32ccc 32ee\	.	.	.	.	.	.	.	.	.	.	.	.	.	.
32C 32CC/	.	32e 32G\	.	32ee 32cc\	.	32ccc 32ee\	.	.	.	.	.	.	.	.	.	.	.	.	.	.
32C 32CC/	.	32e 32G\	.	32ee 32cc\	.	32ccc 32ee\	.	.	.	.	.	.	.	.	.	.	.	.	.	.
32C 32CC/	.	32e 32G\	.	32ee 32cc\	.	32ccc 32ee\	.	.	.	.	.	.	.	.	.	.	.	.	.	.
32C 32CC/	.	32e 32G\	.	32ee 32cc\	.	32ccc 32ee\	.	.	.	.	.	.	.	.	.	.	.	.	.	.
32C 32CC/	.	32e 32G\	.	32ee 32cc\	.	32ccc 32ee\	.	.	.	.	.	.	.	.	.	.	.	.	.	.
32C 32CC/	.	32e 32G\	.	32ee 32cc\	.	32ccc 32ee\	.	.	.	.	.	.	.	.	.	.	.	.	.	.
32C 32CC/	.	32e 32G\	.	32ee 32cc\	.	32ccc 32ee\	.	.	.	.	.	.	.	.	.	.	.	.	.	.
32C 32CC/	.	32e 32G\	.	32ee 32cc\	.	32ccc 32ee\	.	.	.	.	.	.	.	.	.	.	.	.	.	.
32C 32CC/	.	32e 32G\	.	32ee 32cc\	.	32ccc 32ee\	.	.	.	.	.	.	.	.	.	.	.	.	.	.
32C 32CC/	.	32e 32G\	.	32ee 32cc\	.	32ccc 32ee\	.	.	.	.	.	.	.	.	.	.	.	.	.	.
32C 32CC/	.	32e 32G\	.	32ee 32cc\	.	32ccc 32ee\	.	.	.	.	.	.	.	.	.	.	.	.	.	.
32C 32CC/	.	32e 32G\	.	32ee 32cc\	.	32ccc 32ee\	.	.	.	.	.	.	.	.	.	.	.	.	.	.
32C 32CC/	.	32e 32G\	.	32ee 32cc\	.	32ccc 32ee\	.	.	.	.	.	.	.	.	.	.	.	.	.	.
32C 32CC/	.	32e 32G\	.	32ee 32cc\	.	32ccc 32ee\	.	.	.	.	.	.	.	.	.	.	.	.	.	.
32C 32CC/	.	32e 32G\	.	32ee 32cc\	.	32ccc 32ee\	.	.	.	.	.	.	.	.	.	.	.	.	.	.
32C 32CC/	.	32e 32G\	.	32ee 32cc\	.	32ccc 32ee\	.	.	.	.	.	.	.	.	.	.	.	.	.	.
32C 32CC/	.	32e 32G\	.	32ee 32cc\	.	32ccc 32ee\	.	.	.	.	.	.	.	.	.	.	.	.	.	.
32C 32CC/	.	32e 32G\	.	32ee 32cc\	.	32ccc 32ee\	.	.	.	.	.	.	.	.	.	.	.	.	.	.
32C 32CC/	.	32e 32G\	.	32ee 32cc\	.	32ccc 32ee\	.	.	.	.	.	.	.	.	.	.	.	.	.	.
32C 32CC/	.	32e 32G\	.	32ee 32cc\	.	32ccc 32ee\	.	.	.	.	.	.	.	.	.	.	.	.	.	.
32C 32CC/	.	32e 32G\	.	32ee 32cc\	.	32ccc 32ee\	.	.	.	.	.	.	.	.	.	.	.	.	.	.
32C 32CC/	.	32e 32G\	.	32ee 32cc\	.	32ccc 32ee\	.	.	.	.	.	.	.	.	.	.	.	.	.	.
32C 32CC/	.	32e 32G\	.	32ee 32cc\	.	32ccc 32ee\	.	.	.	.	.	.	.	.	.	.	.	.	.	.
32CJJJ 32CC/	.	32eJJJ 32G\	.	32eeJJJ 32cc\	.	32cccJJJ 32ee\	.	.	.	.	.	.	.	.	.	.	.	.	.	.
*Xtremolo	*	*Xtremolo	*	*Xtremolo	*	*Xtremolo	*	*	*	*	*	*	*	*	*	*	*	*	*	*
=133	=133	=133	=133	=133	=133	=133	=133	=133	=133	=133	=133	=133	=133	=133	=133	=133	=133	=133	=133	=133
4C 4CC/	.	4e 4G\	.	4ee 4cc\	.	4ccc 4ee\	.	4cc\	.	4ccc\	.	4G 4C\	.	.	4c\	.	.	4e\	-ie	.
4r;>	.	4r;>	.	4r;>	.	4r;>	.	4r;>	.	4r;>	.	4r;>	.	.	4r;>	.	.	4r;>	.	.
2r	.	2r	.	2r	.	2r	.	2r	.	2r	.	2r	.	.	2r	.	.	2r	.	.
!!LO:LB:g=original
=134||	=134||	=134||	=134||	=134||	=134||	=134||	=134||	=134||	=134||	=134||	=134||	=134||	=134||	=134||	=134||	=134||	=134||	=134||	=134||	=134||
*M6/8	*	*M6/8	*	*M6/8	*	*M6/8	*	*M6/8	*	*M6/8	*	*M6/8	*	*	*M6/8	*	*	*M6/8	*	*
!LO:TX:t=P:problem:problem=w źródle ukryte ostatnie 11 taktów [nieoznaczone przez skryptora]	!	!LO:TX:t=P:problem:problem=w źródle ukryte ostatnie 11 taktów [nieoznaczone przez skryptora]	!	!	!	!	!	!	!	!	!	!	!	!	!	!	!	!	!	!
!	!	!	!	!LO:TX:t=P:problem:problem=w źródle ukryte ostatnie 11 taktów [nieoznaczone przez skryptora]	!	!LO:TX:t=P:problem:problem=w źródle ukryte ostatnie 11 taktów [nieoznaczone przez skryptora]	!	!	!	!	!	!	!	!	!	!	!	!	!	!
!	!	!	!	!	!	!	!	!LO:TX:t=P:problem:problem=w źródle ukryte ostatnie 11 taktów [nieoznaczone przez skryptora]	!	!LO:TX:t=P:problem:problem=w źródle ukryte ostatnie 11 taktów [nieoznaczone przez skryptora]	!	!	!	!	!	!	!	!	!	!
8ryy	.	8ryy	.	8ryy	.	8ryy	.	8ryy	.	8ryy	.	8C/	.	.	8c\	.	.	8e\	A	.
=135	=135	=135	=135	=135	=135	=135	=135	=135	=135	=135	=135	=135	=135	=135	=135	=135	=135	=135	=135	=135
2.ryy	.	2.ryy	.	2.ryy	.	2.ryy	.	2.ryy	.	2.ryy	.	4D/	.	.	4B\	.	.	4d\	te-	.
.	.	.	.	.	.	.	.	.	.	.	.	8D/	.	.	8G/	.	.	8B\	-raz	.
.	.	.	.	.	.	.	.	.	.	.	.	8D/	.	.	8B/	.	.	8d\	Pa-	.
.	.	.	.	.	.	.	.	.	.	.	.	8D/	.	.	8A/	.	.	8c\	-no-	.
.	.	.	.	.	.	.	.	.	.	.	.	8D/	.	.	8F#X/	.	.	8A\	-wie	.
=136	=136	=136	=136	=136	=136	=136	=136	=136	=136	=136	=136	=136	=136	=136	=136	=136	=136	=136	=136	=136
!	!	!	!	!	!	!	!	!	!	!	!	!	!	!	!	!	!	!LO:N:vis=8	!	!
2.ryy	.	2.ryy	.	2.ryy	.	2.ryy	.	2.ryy	.	2.ryy	.	4.G\	.	.	(<4G/	.	.	(>4B\	pa-	.
.	.	.	.	.	.	.	.	.	.	.	.	.	.	.	8B\)	.	.	8d\)	.	.
.	.	.	.	.	.	.	.	.	.	.	.	8G\	.	.	8B\	.	.	8d\	-nie	.
.	.	.	.	.	.	.	.	.	.	.	.	8r	.	.	8r	.	.	8r	.	.
.	.	.	.	.	.	.	.	.	.	.	.	8C/	.	.	8B\	.	.	8e\	Co	.
!!LO:LB:g=original
=137	=137	=137	=137	=137	=137	=137	=137	=137	=137	=137	=137	=137	=137	=137	=137	=137	=137	=137	=137	=137
2.ryy	.	2.ryy	.	2.ryy	.	2.ryy	.	2.ryy	.	2.ryy	.	4D\	.	.	4B\	.	.	4d\	dzi-	.
.	.	.	.	.	.	.	.	.	.	.	.	8D\	.	.	8G\	.	.	8B\	-siaj	.
.	.	.	.	.	.	.	.	.	.	.	.	4D\	.	.	8B\L	.	.	8d\L	tu	.
.	.	.	.	.	.	.	.	.	.	.	.	.	.	.	8A\J	.	.	8c\J	.	.
.	.	.	.	.	.	.	.	.	.	.	.	8D\	.	.	8F#X/	.	.	8A\	słu-	.
=138	=138	=138	=138	=138	=138	=138	=138	=138	=138	=138	=138	=138	=138	=138	=138	=138	=138	=138	=138	=138
2.ryy	.	2.ryy	.	2.ryy	.	2.ryy	.	2.ryy	.	2.ryy	.	8G\	.	.	8G/	.	.	8B\	-cha-	.
.	.	.	.	.	.	.	.	.	.	.	.	8G\	.	.	8G/	.	.	8G\	-cie	.
.	.	.	.	.	.	.	.	.	.	.	.	8r	.	.	8r	.	.	8r	.	.
.	.	.	.	.	.	.	.	.	.	.	.	8r	.	.	8r	.	.	8r	.	.
.	.	.	.	.	.	.	.	.	.	.	.	8G\	.	.	8G/	.	.	8G/	czy-	.
.	.	.	.	.	.	.	.	.	.	.	.	8G\	.	.	8G/	.	.	8G/	-liż	.
=139	=139	=139	=139	=139	=139	=139	=139	=139	=139	=139	=139	=139	=139	=139	=139	=139	=139	=139	=139	=139
2.ryy	.	2.ryy	.	2.ryy	.	2.ryy	.	2.ryy	.	2.ryy	.	8Fn\	.	.	8G/	.	.	8B/	bra-	.
.	.	.	.	.	.	.	.	.	.	.	.	8G\	.	.	8G/	.	.	8G/	-wa	.
.	.	.	.	.	.	.	.	.	.	.	.	8r	.	.	8r	.	.	8r	.	.
.	.	.	.	.	.	.	.	.	.	.	.	8r	.	.	8r	.	.	8r	.	.
.	.	.	.	.	.	.	.	.	.	.	.	8G\	.	.	8G/	.	.	8G/	na	.
.	.	.	.	.	.	.	.	.	.	.	.	8G\	.	.	8G/	.	.	8G/	mnie	.
!!LO:LB:g=original
=140	=140	=140	=140	=140	=140	=140	=140	=140	=140	=140	=140	=140	=140	=140	=140	=140	=140	=140	=140	=140
2.ryy	.	2.ryy	.	2.ryy	.	2.ryy	.	2.ryy	.	2.ryy	.	8E\	.	.	8G/	.	.	8c\	da-	.
.	.	.	.	.	.	.	.	.	.	.	.	8G\	.	.	8G/	.	.	8G/	-cie	.
.	.	.	.	.	.	.	.	.	.	.	.	8r	.	.	8r	.	.	8r	.	.
.	.	.	.	.	.	.	.	.	.	.	.	8r	.	.	8r	.	.	8r	.	.
.	.	.	.	.	.	.	.	.	.	.	.	8G\	.	.	8G/	.	.	8G/	czy-	.
.	.	.	.	.	.	.	.	.	.	.	.	8G\	.	.	8G/	.	.	8G/	-liż	.
=141	=141	=141	=141	=141	=141	=141	=141	=141	=141	=141	=141	=141	=141	=141	=141	=141	=141	=141	=141	=141
2.ryy	.	2.ryy	.	2.ryy	.	2.ryy	.	2.ryy	.	2.ryy	.	8BB/	.	.	8G/	.	.	8d\	bra-	.
.	.	.	.	.	.	.	.	.	.	.	.	8G\	.	.	8G/	.	.	8G/	-wa	.
.	.	.	.	.	.	.	.	.	.	.	.	8r	.	.	8r	.	.	8r	.	.
.	.	.	.	.	.	.	.	.	.	.	.	8r	.	.	8r	.	.	8r	.	.
.	.	.	.	.	.	.	.	.	.	.	.	8G\	.	.	8G/	.	.	8G/	na	.
.	.	.	.	.	.	.	.	.	.	.	.	8G\	.	.	8G/	.	.	8G/	mnie	.
=142	=142	=142	=142	=142	=142	=142	=142	=142	=142	=142	=142	=142	=142	=142	=142	=142	=142	=142	=142	=142
2.ryy	.	2.ryy	.	2.ryy	.	2.ryy	.	2.ryy	.	2.ryy	.	8C/	.	.	8G/	.	.	8e\	da-	.
.	.	.	.	.	.	.	.	.	.	.	.	8E\	.	.	8G/	.	.	8c\	-cie	.
.	.	.	.	.	.	.	.	.	.	.	.	8r	.	.	8r	.	.	8r	.	.
.	.	.	.	.	.	.	.	.	.	.	.	4r;>	.	.	4r;>	.	.	4r;>	.	.
.	.	.	.	.	.	.	.	.	.	.	.	8r	.	.	8r	.	.	8r	.	.
=143	=143	=143	=143	=143	=143	=143	=143	=143	=143	=143	=143	=143	=143	=143	=143	=143	=143	=143	=143	=143
!	!	!	!	!	!	!	!	!	!	!	!	!LO:TX:b:Bi:t=bis	!	!	!	!	!	!LO:TX:b:Bi:t=bis	!	!
!	!	!	!	!	!	!	!	!	!	!	!	!	!	!LO:DY:b:Bi:t=%so:rj	!	!	!	!	!	!
2.ryy	.	2.ryy	.	2.ryy	.	2.ryy	.	2.ryy	.	2.ryy	.	(>2.G\	.	ff	(>2.g\	.	.	(>2.g\	.	.
=144	=144	=144	=144	=144	=144	=144	=144	=144	=144	=144	=144	=144	=144	=144	=144	=144	=144	=144	=144	=144
2.ryy	.	2.ryy	.	2.ryy	.	2.ryy	.	2.ryy	.	2.ryy	.	4c\)	.	.	4c\)	.	.	4c\)	.	.
.	.	.	.	.	.	.	.	.	.	.	.	8ryy	.	.	8r	.	.	8r	.	.
.	.	.	.	.	.	.	.	.	.	.	.	4ryy	.	.	4r;>	.	.	4r;>	.	.
.	.	.	.	.	.	.	.	.	.	.	.	8ryy	.	.	8r	.	.	8r	.	.
==	==	==	==	==	==	==	==	==	==	==	==	==	==	==	==	==	==	==	==	==
*-	*-	*-	*-	*-	*-	*-	*-	*-	*-	*-	*-	*-	*-	*-	*-	*-	*-	*-	*-	*-
!!!system-decoration: {(s1,s2,s3)}{(s4,s5)}{(s6,s7,s8,s9)}
!!!RDF**kern: > = above
!!!RDF**kern: < = below
!!!RDF**kern: | = vertical stroke
!!!RDF**kern: N = linked
!!!RDF**kern: i = editorial accidental
!!!EED: Wojciech Jakubiak-Danek
!!!EEV: 2021-05-06
!!!ENC: Marcin Jachim
!!!END: 2021-04-28
